; HEADER_BLOCK_START
; generated by OrcaSlicer 2.3.1 on 2026-04-24 at 16:03:15
; total layer number: 188
; filament_density: 1.24
; filament_diameter: 1.75
; max_z_height: 15.24
; HEADER_BLOCK_END

; THUMBNAIL_BLOCK_START

;
; THUMBNAIL_BLOCK_END

; THUMBNAIL_BLOCK_START

;
; THUMBNAIL_BLOCK_END

; external perimeters extrusion width = 0.42mm
; perimeters extrusion width = 0.45mm
; infill extrusion width = 0.45mm
; solid infill extrusion width = 0.42mm
; top infill extrusion width = 0.42mm
; support material extrusion width = 0.42mm
; first layer extrusion width = 0.50mm

; EXECUTABLE_BLOCK_START
EXCLUDE_OBJECT_DEFINE NAME=champion_beam.stl_id_0_copy_0 CENTER=110,110 POLYGON=[[54.1917,209.817],[59.2558,199.46],[102.301,111.422],[103.989,107.97],[104.872,106.264],[106.717,102.892],[111.328,94.4639],[157.442,10.1782],[159.286,6.80682],[165.808,10.1831],[159.9,22.2667],[117.699,108.578],[116.011,112.03],[115.128,113.736],[113.283,117.108],[108.672,125.536],[62.5583,209.822],[60.7137,213.193],[54.1917,209.817]]
M73 P0 R53
M106 S0
M106 P2 S0
;TYPE:Custom
M106 P2 S255 
M191 S25 ;set chamber_temperature and wait for it to be reached
M106 P2 S0 
M140 S0
M104 S0 
START_PRINT EXTRUDER_TEMP=220 BED_TEMP=60
G90
G21
M83 ; use relative distances for extrusion
; filament start gcode
M106 S0
M106 P2 S0
;LAYER_CHANGE
;Z:0.12
;HEIGHT:0.12
;BEFORE_LAYER_CHANGE
;0.12
G92 E0

G1 E-.6 F2400
;_SET_FAN_SPEED_CHANGING_LAYER
SET_VELOCITY_LIMIT ACCEL=500 ACCEL_TO_DECEL=250
SET_VELOCITY_LIMIT SQUARE_CORNER_VELOCITY=9
EXCLUDE_OBJECT_START NAME=champion_beam.stl_id_0_copy_0
G1 Z.32 F30000
G1 X116.063 Y78.163
G1 Z.32
G1 Z.12
G1 E.6 F2400
;TYPE:Support interface
;WIDTH:0.42
G1 F3600
G1 X115.789 Y78.163 E.00528
G1 X115.788 Y83.755 E.10778
G1 X115.788 Y86.846 E.05959
G1 X116.26 Y86.846 E.00908
G1 X116.26 Y78.163 E.16737
G1 X117.154 Y78.163 E.01724
G1 X117.154 Y86.846 E.16737
G1 X118.048 Y86.846 E.01724
G1 X118.048 Y78.163 E.16737
G1 X118.627 Y78.163 E.01116
G1 X118.683 Y75.76 F30000
G1 F3600
G1 X118.683 Y75.269 E.00947
G1 X118.943 Y75.269 E.00501
G1 X118.943 Y89.74 E.27894
G1 X119.837 Y89.74 E.01724
G1 X119.837 Y75.269 E.27894
G1 X120.731 Y75.269 E.01724
G1 X120.731 Y89.74 E.27894
G1 X121.625 Y89.74 E.01724
G1 X121.625 Y69.481 E.39052
G1 X122.519 Y69.481 E.01724
G1 X122.519 Y89.74 E.39052
G1 X123.414 Y89.74 E.01724
G1 X123.414 Y69.481 E.39052
G1 X124.111 Y69.481 E.01344
;WIPE_START
G1 X123.414 Y69.481 E-.20914
G1 X123.414 Y70.783 E-.39086
;WIPE_END
G1 Z.32 F30000
G1 X133.448 Y78.163 Z.32
G1 Z.12
G1 E.6 F2400
G1 F3600
G1 X134.145 Y78.163 E.01344
G1 X134.145 Y49.221 E.55789
G1 X135.039 Y49.221 E.01724
G1 X135.039 Y78.163 E.55789
G1 X135.933 Y78.163 E.01724
G1 X135.933 Y49.221 E.55789
G1 X136.048 Y49.221 E.00222
G1 X136.048 Y43.432 E.11158
G1 X136.827 Y43.432 E.01502
G1 X136.827 Y72.375 E.55789
G1 X137.722 Y72.375 E.01724
G1 X137.722 Y43.432 E.55789
G1 X138.616 Y43.432 E.01724
M73 P0 R52
G1 X138.616 Y72.375 E.55789
G1 X138.943 Y72.375 E.0063
G1 X138.943 Y66.586 E.11158
G1 X139.51 Y66.586 E.01094
G1 X139.51 Y37.644 E.55789
G1 X140.404 Y37.644 E.01724
G1 X140.404 Y66.586 E.55789
G1 X141.299 Y66.586 E.01724
G1 X141.299 Y37.644 E.55789
G1 X141.837 Y37.644 E.01037
G1 X141.837 Y31.855 E.11158
G1 X142.193 Y31.855 E.00687
G1 X142.193 Y60.798 E.55789
G1 X143.087 Y60.798 E.01724
G1 X143.087 Y31.855 E.55789
G1 X143.981 Y31.855 E.01724
G1 X143.981 Y60.798 E.55789
G1 X144.731 Y60.798 E.01445
G1 X144.731 Y55.009 E.11158
G1 X144.876 Y55.009 E.00279
G1 X144.876 Y33.155 E.42127
G1 X144.732 Y33.08 E.00312
G1 X144.634 Y32.76 E.00644
G1 X144.876 Y32.319 E.0097
G1 X144.876 Y31.855 E.00894
G1 X145.129 Y31.855 E.00489
G1 X144.97 Y32.146 E.00639
;WIPE_START
G1 X145.129 Y31.855 E-.09945
G1 X144.876 Y31.855 E-.07612
G1 X144.876 Y32.319 E-.13913
G1 X144.634 Y32.76 E-.15089
G1 X144.732 Y33.08 E-.1003
G1 X144.833 Y33.132 E-.03411
;WIPE_END
G1 Z.32 F30000
G1 X153.121 Y43.432 Z.32
G1 Z.12
G1 E.6 F2400
G1 F3600
G1 X153.414 Y43.432 E.00564
G1 X153.414 Y36.437 E.13484
G1 X153.075 Y37.13 E.01487
G1 X152.924 Y37.18 E.00307
G1 X152.924 Y43.432 E.12052
G1 X152.03 Y43.432 E.01724
G1 X152.03 Y36.858 E.12672
G1 X151.135 Y36.395 E.01941
G1 X151.135 Y43.432 E.13565
G1 X150.557 Y43.432 E.01116
;WIPE_START
G1 X151.135 Y43.432 E-.17365
G1 X151.135 Y42.011 E-.42635
;WIPE_END
G1 Z.32 F30000
G1 X147.874 Y49.221 Z.32
G1 Z.12
G1 E.6 F2400
G1 F3600
G1 X148.453 Y49.221 E.01116
G1 X148.453 Y35.006 E.274
G1 X149.347 Y35.469 E.01941
G1 X149.347 Y49.221 E.26507
G1 X150.241 Y49.221 E.01724
G1 X150.241 Y35.932 E.25615
G1 X150.96 Y36.304 E.01561
G1 X148.278 Y34.916 F30000
G1 F3600
G1 X147.558 Y34.543 E.01561
G1 X147.558 Y55.009 E.3945
G1 X146.664 Y55.009 E.01724
G1 X146.664 Y34.08 E.40342
G1 X145.77 Y33.617 E.01941
G1 X145.77 Y55.009 E.41234
G1 X145.073 Y55.009 E.01344
;WIPE_START
G1 X145.77 Y55.009 E-.20914
G1 X145.77 Y53.706 E-.39086
;WIPE_END
G1 Z.32 F30000
G1 X133.948 Y49.221 Z.32
G1 Z.12
G1 E.6 F2400
G1 F3600
G1 X133.25 Y49.221 E.01344
G1 X133.25 Y78.163 E.55789
G1 X133.154 Y78.163 E.00186
G1 X133.154 Y83.952 E.11158
G1 X132.356 Y83.952 E.01538
G1 X132.356 Y52.115 E.61368
G1 X131.462 Y52.115 E.01724
G1 X131.462 Y83.952 E.61368
G1 X130.568 Y83.952 E.01724
G1 X130.568 Y52.115 E.61368
G1 X130.26 Y52.115 E.00594
G1 X130.26 Y52.717 E.01161
;WIPE_START
G1 X130.26 Y52.115 E-.18064
G1 X130.568 Y52.115 E-.09239
G1 X130.568 Y53.205 E-.32697
;WIPE_END
G1 Z.32 F30000
G1 X130.252 Y57.904 Z.32
G1 Z.12
G1 E.6 F2400
G1 F3600
G1 X129.673 Y57.904 E.01116
G1 X129.673 Y89.74 E.61368
G1 X128.779 Y89.74 E.01724
G1 X128.779 Y57.904 E.61368
G1 X127.885 Y57.904 E.01724
G1 X127.885 Y89.74 E.61368
G1 X127.366 Y89.74 E.01001
G1 X127.366 Y92.635 E.05579
G1 X126.991 Y92.635 E.00723
G1 X126.991 Y63.692 E.55789
G1 X126.096 Y63.692 E.01724
G1 X126.096 Y92.635 E.55789
G1 X125.202 Y92.635 E.01724
G1 X125.202 Y63.692 E.55789
G1 X124.471 Y63.692 E.01409
G1 X124.471 Y69.481 E.11158
G1 X124.308 Y69.481 E.00315
G1 X124.308 Y89.74 E.39052
G1 X124.471 Y89.74 E.00315
G1 X124.471 Y92.635 E.05579
;WIPE_START
G1 X124.471 Y90.635 E-.6
;WIPE_END
G1 Z.32 F30000
G1 X128.443 Y97.262 Z.32
G1 Z.12
G1 E.6 F2400
;TYPE:Support
;WIDTH:0.5
G1 F3600
G1 X128.443 Y91.509 E.13341
G1 X128.24 Y91.509 E.00472
G1 X128.24 Y93.509 E.04637
G1 X127.916 Y93.509 E.0075
G1 X127.916 Y97.049 E.08209
G1 X127.389 Y97.049 E.01222
G1 X127.389 Y93.509 E.08209
G1 X126.862 Y93.509 E.01222
G1 X126.862 Y97.049 E.08209
G1 X126.335 Y97.049 E.01222
G1 X126.335 Y93.509 E.08209
G1 X125.808 Y93.509 E.01222
G1 X125.808 Y102.837 E.21631
G1 X125.281 Y102.837 E.01222
G1 X125.281 Y93.509 E.21631
G1 X124.754 Y93.509 E.01222
G1 X124.754 Y102.837 E.21631
G1 X124.227 Y102.837 E.01222
G1 X124.227 Y93.509 E.21631
G1 X123.7 Y93.509 E.01222
G1 X123.7 Y102.837 E.21631
G1 X123.174 Y102.837 E.01222
G1 X123.174 Y90.614 E.28342
G1 X122.647 Y90.614 E.01222
G1 X122.647 Y108.626 E.41764
G1 X122.12 Y108.626 E.01222
G1 X122.12 Y90.614 E.41764
G1 X121.593 Y90.614 E.01222
M73 P1 R52
G1 X121.593 Y108.626 E.41764
G1 X121.066 Y108.626 E.01222
G1 X121.066 Y90.614 E.41764
G1 X120.539 Y90.614 E.01222
G1 X120.539 Y108.626 E.41764
G1 X120.203 Y108.626 E.00779
G1 X120.203 Y114.414 E.13422
G1 X120.012 Y114.414 E.00443
G1 X120.012 Y90.614 E.55186
G1 X119.485 Y90.614 E.01222
G1 X119.485 Y114.414 E.55186
G1 X118.958 Y114.414 E.01222
G1 X118.958 Y90.614 E.55186
G1 X118.431 Y90.614 E.01222
G1 X118.431 Y114.414 E.55186
G1 X117.904 Y114.414 E.01222
G1 X117.904 Y90.614 E.55186
G1 X117.809 Y90.614 E.00221
G1 X117.809 Y87.72 E.06711
G1 X117.377 Y87.72 E.01001
G1 X117.377 Y114.414 E.61897
G1 X117.309 Y114.414 E.00159
G1 X117.309 Y120.203 E.13422
G1 X116.85 Y120.203 E.01063
G1 X116.85 Y87.72 E.75318
G1 X116.323 Y87.72 E.01222
G1 X116.323 Y120.203 E.75318
G1 X115.796 Y120.203 E.01222
G1 X115.796 Y87.72 E.75318
G1 X115.269 Y87.72 E.01222
G1 X115.269 Y120.203 E.75318
G1 X114.742 Y120.203 E.01222
G1 X114.742 Y82.432 E.87581
G1 X114.216 Y82.432 E.01222
G1 X114.216 Y125.991 E1.01003
G1 X113.689 Y125.991 E.01222
G1 X113.689 Y82.432 E1.01003
G1 X113.162 Y82.432 E.01222
G1 X113.162 Y125.991 E1.01003
G1 X112.635 Y125.991 E.01222
G1 X112.635 Y82.432 E1.01003
G1 X112.108 Y82.432 E.01222
G1 X112.108 Y125.991 E1.01003
G1 X111.581 Y125.991 E.01222
G1 X111.581 Y82.432 E1.01003
G1 X111.374 Y82.432 E.00479
G1 X111.374 Y88.22 E.13422
G1 X111.054 Y88.22 E.00742
G1 X111.054 Y131.78 E1.01003
G1 X110.527 Y131.78 E.01222
G1 X110.527 Y88.22 E1.01003
G1 X110 Y88.22 E.01222
G1 X110 Y131.78 E1.01003
G1 X109.473 Y131.78 E.01222
G1 X109.473 Y88.22 E1.01003
G1 X108.946 Y88.22 E.01222
G1 X108.946 Y131.78 E1.01003
G1 X108.626 Y131.78 E.00742
G1 X108.626 Y137.568 E.13422
G1 X108.419 Y137.568 E.0048
G1 X108.419 Y94.009 E1.01003
G1 X107.892 Y94.009 E.01222
G1 X107.892 Y137.568 E1.01003
G1 X107.365 Y137.568 E.01222
G1 X107.365 Y94.009 E1.01003
G1 X106.838 Y94.009 E.01222
G1 X106.838 Y137.568 E1.01003
G1 X106.311 Y137.568 E.01222
G1 X106.311 Y94.009 E1.01003
G1 X105.785 Y94.009 E.01222
G1 X105.784 Y137.568 E1.01003
G1 X105.258 Y137.568 E.01222
G1 X105.258 Y99.797 E.87581
G1 X104.731 Y99.797 E.01222
G1 X104.731 Y132.28 E.75318
G1 X104.204 Y132.28 E.01222
G1 X104.204 Y99.797 E.75318
G1 X103.677 Y99.797 E.01222
G1 X103.677 Y132.28 E.75318
G1 X103.15 Y132.28 E.01222
G1 X103.15 Y99.797 E.75318
G1 X102.691 Y99.797 E.01063
G1 X102.691 Y105.586 E.13422
G1 X102.623 Y105.586 E.00159
G1 X102.623 Y132.28 E.61897
G1 X102.191 Y132.28 E.01001
G1 X102.191 Y129.386 E.06711
G1 X102.096 Y129.386 E.00221
G1 X102.096 Y105.586 E.55186
G1 X101.569 Y105.586 E.01222
G1 X101.569 Y129.386 E.55186
G1 X101.042 Y129.386 E.01222
G1 X101.042 Y105.586 E.55186
G1 X100.515 Y105.586 E.01222
G1 X100.515 Y129.386 E.55186
G1 X99.988 Y129.386 E.01222
G1 X99.988 Y105.586 E.55186
G1 X99.797 Y105.586 E.00443
G1 X99.797 Y111.374 E.13422
G1 X99.461 Y111.374 E.00779
G1 X99.461 Y129.386 E.41764
G1 X98.934 Y129.386 E.01222
G1 X98.934 Y111.374 E.41764
G1 X98.407 Y111.374 E.01222
G1 X98.407 Y129.386 E.41764
G1 X97.88 Y129.386 E.01222
G1 X97.88 Y111.374 E.41764
G1 X97.353 Y111.374 E.01222
M73 P2 R52
G1 X97.353 Y129.386 E.41764
G1 X96.827 Y129.386 E.01222
G1 X96.827 Y117.163 E.28342
G1 X96.3 Y117.163 E.01222
G1 X96.3 Y126.491 E.21631
G1 X95.773 Y126.491 E.01222
G1 X95.773 Y117.163 E.21631
G1 X95.246 Y117.163 E.01222
G1 X95.246 Y126.491 E.21631
G1 X94.719 Y126.491 E.01222
G1 X94.719 Y117.163 E.21631
G1 X94.192 Y117.163 E.01222
G1 X94.192 Y126.491 E.21631
G1 X93.665 Y126.491 E.01222
G1 X93.665 Y122.951 E.08209
G1 X93.138 Y122.951 E.01222
G1 X93.138 Y126.491 E.08209
G1 X92.611 Y126.491 E.01222
G1 X92.611 Y122.951 E.08209
G1 X92.084 Y122.951 E.01222
G1 X92.084 Y126.491 E.08209
G1 X91.761 Y126.491 E.0075
G1 X91.761 Y128.491 E.04637
G1 X91.557 Y128.491 E.00472
G1 X91.557 Y122.738 E.13341
;WIPE_START
G1 X91.557 Y124.738 E-.6
;WIPE_END
G1 Z.32 F30000
G1 X115.341 Y83.755 Z.32
G1 Z.12
G1 E.6 F2400
G1 F3600
G1 X115.341 Y87.293 E.08205
G1 X118.236 Y87.293 E.06711
G1 X118.236 Y90.188 E.06711
G1 X124.024 Y90.188 E.13422
G1 X124.024 Y93.082 E.06711
G1 X127.813 Y93.082 E.08785
G1 X127.813 Y91.082 E.04637
M73 P2 R51
G1 X129.313 Y91.082 E.03478
G1 X129.313 Y97.476 E.14826
G1 X126.418 Y97.476 E.06711
G1 X126.418 Y103.264 E.13422
G1 X123.524 Y103.264 E.06711
G1 X123.524 Y109.053 E.13422
G1 X120.63 Y109.053 E.06711
G1 X120.63 Y114.841 E.13422
G1 X117.736 Y114.841 E.06711
G1 X117.736 Y120.63 E.13422
G1 X114.841 Y120.63 E.06711
G1 X114.841 Y126.418 E.13422
G1 X111.947 Y126.418 E.06711
G1 X111.947 Y132.207 E.13422
G1 X109.053 Y132.207 E.06711
G1 X109.053 Y137.995 E.13422
G1 X104.659 Y137.995 E.10189
G1 X104.659 Y136.245 E.04058
G1 X104.659 Y132.707 E.08205
G1 X101.765 Y132.707 E.06711
G1 X101.765 Y129.813 E.06711
G1 X95.976 Y129.812 E.13422
G1 X95.976 Y126.918 E.06711
G1 X92.187 Y126.918 E.08785
G1 X92.187 Y128.918 E.04637
G1 X90.688 Y128.918 E.03478
G1 X90.688 Y122.524 E.14826
G1 X93.582 Y122.524 E.06711
G1 X93.582 Y116.736 E.13422
G1 X96.476 Y116.736 E.06711
G1 X96.476 Y110.947 E.13422
G1 X99.37 Y110.947 E.06711
G1 X99.37 Y105.159 E.13422
G1 X102.265 Y105.159 E.06711
G1 X102.265 Y99.37 E.13422
G1 X105.159 Y99.37 E.06711
G1 X105.159 Y93.582 E.13422
G1 X108.053 Y93.582 E.06711
G1 X108.053 Y87.793 E.13422
G1 X110.947 Y87.793 E.06711
G1 X110.947 Y82.005 E.13422
G1 X115.341 Y82.005 E.10189
G1 X115.341 Y83.684 E.03893
;WIPE_START
G1 X115.341 Y82.005 E-.50362
G1 X115.02 Y82.005 E-.09638
;WIPE_END
G1 Z.32 F30000
G1 X95.529 Y127.365 Z.32
G1 Z.12
G1 E.6 F2400
;TYPE:Support interface
;WIDTH:0.42
G1 F3600
G1 X95.529 Y130.26 E.05579
G1 X95.692 Y130.26 E.00315
G1 X95.692 Y150.52 E.39052
G1 X95.529 Y150.52 E.00315
G1 X95.529 Y156.308 E.11158
G1 X94.798 Y156.308 E.01409
G1 X94.798 Y127.365 E.55789
G1 X93.904 Y127.365 E.01724
G1 X93.904 Y156.308 E.55789
G1 X93.009 Y156.308 E.01724
G1 X93.009 Y127.365 E.55789
G1 X92.635 Y127.365 E.00722
G1 X92.635 Y130.26 E.05579
G1 X92.115 Y130.26 E.01001
G1 X92.115 Y162.097 E.61368
G1 X91.221 Y162.097 E.01724
G1 X91.221 Y130.26 E.61368
G1 X90.327 Y130.26 E.01724
G1 X90.327 Y162.097 E.61368
G1 X89.748 Y162.097 E.01116
;WIPE_START
G1 X90.327 Y162.097 E-.17365
G1 X90.327 Y160.675 E-.42635
;WIPE_END
G1 Z.32 F30000
G1 X95.889 Y150.52 Z.32
G1 Z.12
G1 E.6 F2400
G1 F3600
G1 X96.586 Y150.52 E.01344
G1 X96.586 Y130.26 E.39052
G1 X97.481 Y130.26 E.01724
G1 X97.481 Y150.52 E.39052
G1 X98.375 Y150.52 E.01724
G1 X98.375 Y130.26 E.39052
G1 X99.072 Y130.26 E.01344
G1 X101.317 Y130.751 F30000
G1 F3600
G1 X101.317 Y130.26 E.00947
G1 X101.058 Y130.26 E.00501
G1 X101.058 Y144.731 E.27894
G1 X100.163 Y144.731 E.01724
G1 X100.163 Y130.26 E.27894
G1 X99.269 Y130.26 E.01724
G1 X99.269 Y144.731 E.27894
G1 X98.69 Y144.731 E.01116
G1 X101.373 Y141.837 F30000
G1 F3600
G1 X101.952 Y141.837 E.01116
G1 X101.952 Y133.154 E.16737
G1 X102.846 Y133.154 E.01724
G1 X102.846 Y141.837 E.16737
G1 X103.74 Y141.837 E.01724
G1 X103.74 Y133.154 E.16737
G1 X104.212 Y133.154 E.00908
G1 X104.212 Y141.837 E.16737
G1 X103.937 Y141.837 E.00528
;WIPE_START
G1 X104.212 Y141.837 E-.08225
G1 X104.212 Y140.111 E-.51775
;WIPE_END
G1 Z.32 F30000
G1 X90.129 Y130.26 Z.32
G1 Z.12
G1 E.6 F2400
G1 F3600
G1 X89.74 Y130.26 E.0075
G1 X89.74 Y136.048 E.11158
G1 X89.432 Y136.048 E.00594
G1 X89.432 Y167.885 E.61368
G1 X88.538 Y167.885 E.01724
G1 X88.538 Y136.048 E.61368
G1 X87.644 Y136.048 E.01724
G1 X87.644 Y167.885 E.61368
G1 X87.065 Y167.885 E.01116
G1 X84.264 Y170.779 F30000
G1 F3600
G1 X84.961 Y170.779 E.01344
G1 X84.961 Y141.837 E.55789
G1 X85.855 Y141.837 E.01724
G1 X85.855 Y170.779 E.55789
G1 X86.75 Y170.779 E.01724
G1 X86.75 Y141.837 E.55789
G1 X86.846 Y141.837 E.00186
G1 X86.846 Y136.048 E.11158
G1 X87.644 Y136.048 E.01538
;WIPE_START
G1 X86.846 Y136.048 E-.23934
G1 X86.846 Y137.25 E-.36066
;WIPE_END
G1 Z.32 F30000
G1 X84.764 Y141.837 Z.32
G1 Z.12
G1 E.6 F2400
G1 F3600
G1 X84.067 Y141.837 E.01344
G1 X84.067 Y170.779 E.55789
G1 X83.952 Y170.779 E.00222
G1 X83.952 Y176.568 E.11158
G1 X83.173 Y176.568 E.01502
G1 X83.173 Y147.625 E.55789
G1 X82.278 Y147.625 E.01724
G1 X82.278 Y176.568 E.55789
G1 X81.384 Y176.568 E.01724
G1 X81.384 Y147.625 E.55789
G1 X81.058 Y147.625 E.0063
G1 X81.058 Y153.414 E.11158
G1 X80.49 Y153.414 E.01094
G1 X80.49 Y182.356 E.55789
G1 X79.596 Y182.356 E.01724
G1 X79.596 Y153.414 E.55789
G1 X78.701 Y153.414 E.01724
G1 X78.701 Y182.356 E.55789
G1 X78.163 Y182.356 E.01037
G1 X78.163 Y188.145 E.11158
G1 X77.807 Y188.145 E.00687
G1 X77.807 Y159.202 E.55789
G1 X76.913 Y159.202 E.01724
M73 P3 R51
G1 X76.913 Y188.145 E.55789
G1 X76.019 Y188.145 E.01724
G1 X76.019 Y159.202 E.55789
G1 X75.269 Y159.202 E.01445
G1 X75.269 Y164.991 E.11158
G1 X75.124 Y164.991 E.00279
G1 X75.124 Y186.845 E.42127
G1 X75.268 Y186.92 E.00312
G1 X75.366 Y187.24 E.00644
G1 X75.124 Y187.681 E.0097
G1 X75.124 Y188.145 E.00894
G1 X74.871 Y188.145 E.00489
G1 X75.03 Y187.854 E.00639
;WIPE_START
G1 X74.871 Y188.145 E-.09947
G1 X75.124 Y188.145 E-.07613
G1 X75.124 Y187.681 E-.13914
G1 X75.366 Y187.24 E-.15089
G1 X75.268 Y186.92 E-.1003
G1 X75.167 Y186.868 E-.03407
;WIPE_END
G1 Z.32 F30000
G1 X66.879 Y176.568 Z.32
G1 Z.12
G1 E.6 F2400
G1 F3600
G1 X66.586 Y176.568 E.00564
