; HEADER_BLOCK_START
; generated by OrcaSlicer 2.3.1 on 2026-04-24 at 15:59:44
; total layer number: 110
; filament_density: 1.24
; filament_diameter: 1.75
; max_z_height: 15.20
; HEADER_BLOCK_END

; THUMBNAIL_BLOCK_START

;
; THUMBNAIL_BLOCK_END

; THUMBNAIL_BLOCK_START

;
; THUMBNAIL_BLOCK_END

; external perimeters extrusion width = 0.42mm
; perimeters extrusion width = 0.45mm
; infill extrusion width = 0.45mm
; solid infill extrusion width = 0.42mm
; top infill extrusion width = 0.42mm
; support material extrusion width = 0.42mm
; first layer extrusion width = 0.50mm

; EXECUTABLE_BLOCK_START
EXCLUDE_OBJECT_DEFINE NAME=champion_beam.stl_id_0_copy_0 CENTER=110,110 POLYGON=[[54.1917,209.817],[59.2558,199.46],[102.301,111.422],[103.989,107.97],[104.872,106.264],[106.717,102.892],[111.328,94.4639],[157.442,10.1782],[159.286,6.80682],[165.808,10.1831],[159.9,22.2667],[117.699,108.578],[116.011,112.03],[115.128,113.736],[113.283,117.108],[108.672,125.536],[62.5583,209.822],[60.7137,213.193],[54.1917,209.817]]
M73 P0 R43
M106 S0
M106 P2 S0
;TYPE:Custom
M106 P2 S255 
M191 S25 ;set chamber_temperature and wait for it to be reached
M106 P2 S0 
M140 S0
M104 S0 
START_PRINT EXTRUDER_TEMP=220 BED_TEMP=60
G90
G21
M83 ; use relative distances for extrusion
; filament start gcode
M106 S0
M106 P2 S0
;LAYER_CHANGE
;Z:0.2
;HEIGHT:0.2
;BEFORE_LAYER_CHANGE
;0.2
G92 E0

G1 E-.6 F2400
;_SET_FAN_SPEED_CHANGING_LAYER
SET_VELOCITY_LIMIT ACCEL=500 ACCEL_TO_DECEL=250
SET_VELOCITY_LIMIT SQUARE_CORNER_VELOCITY=9
EXCLUDE_OBJECT_START NAME=champion_beam.stl_id_0_copy_0
G1 Z.4 F30000
G1 X115.951 Y78.352
G1 Z.4
G1 Z.2
G1 E.6 F2400
;TYPE:Support interface
;WIDTH:0.42
G1 F3600
G1 X115.754 Y78.352 E.00605
G1 X115.754 Y86.983 E.26522
G1 X116.14 Y86.983 E.01184
G1 X116.14 Y78.352 E.26522
G1 X117.017 Y78.352 E.02695
G1 X117.017 Y86.983 E.26522
G1 X117.894 Y86.983 E.02695
G1 X117.894 Y78.352 E.26522
G1 X118.469 Y78.352 E.01768
G1 X121.214 Y75.475 F30000
G1 F3600
G1 X120.525 Y75.475 E.02116
G1 X120.525 Y89.86 E.44202
G1 X119.648 Y89.86 E.02695
G1 X119.648 Y75.475 E.44202
G1 X118.771 Y75.475 E.02695
G1 X118.771 Y89.86 E.44202
;WIPE_START
G1 X118.771 Y87.86 E-.6
;WIPE_END
G1 Z.4 F30000
G1 X115.316 Y83.918 Z.4
G1 Z.2
G1 E.6 F2400
;TYPE:Support
;WIDTH:0.5
G1 F3600
G1 X115.316 Y87.422 E.13052
G1 X118.193 Y87.422 E.10716
G1 X118.193 Y90.299 E.10716
G1 X123.947 Y90.299 E.21432
G1 X123.947 Y93.176 E.10716
G1 X127.701 Y93.176 E.13984
G1 X127.701 Y91.176 E.07449
G1 X129.201 Y91.176 E.05586
G1 X129.201 Y97.553 E.23751
G1 X126.324 Y97.553 E.10716
G1 X126.324 Y103.307 E.21432
G1 X123.447 Y103.307 E.10716
G1 X123.447 Y109.061 E.21432
G1 X120.57 Y109.061 E.10716
G1 X120.57 Y114.816 E.21432
G1 X117.693 Y114.816 E.10716
G1 X117.693 Y120.57 E.21432
G1 X114.816 Y120.57 E.10716
G1 X114.816 Y126.324 E.21432
G1 X111.938 Y126.324 E.10716
G1 X111.938 Y132.078 E.21432
G1 X109.061 Y132.078 E.10716
G1 X109.061 Y137.832 E.21432
G1 X104.685 Y137.832 E.16302
G1 X104.685 Y132.578 E.1957
G1 X101.807 Y132.578 E.10716
G1 X101.807 Y129.701 E.10716
G1 X96.053 Y129.701 E.21432
G1 X96.053 Y126.824 E.10716
G1 X92.299 Y126.824 E.13984
G1 X92.299 Y128.824 E.07449
G1 X90.799 Y128.824 E.05586
G1 X90.799 Y122.447 E.23751
G1 X93.676 Y122.447 E.10716
G1 X93.676 Y116.693 E.21432
G1 X96.553 Y116.693 E.10716
G1 X96.553 Y110.939 E.21432
G1 X99.43 Y110.939 E.10716
G1 X99.43 Y105.184 E.21432
G1 X102.307 Y105.184 E.10716
G1 X102.307 Y99.43 E.21432
G1 X105.185 Y99.43 E.10716
G1 X105.185 Y93.676 E.21432
G1 X108.062 Y93.676 E.10716
G1 X108.062 Y87.922 E.21432
G1 X110.939 Y87.922 E.10716
G1 X110.939 Y82.168 E.21432
G1 X115.316 Y82.168 E.16302
G1 X115.316 Y83.849 E.06262
;WIPE_START
G1 X115.316 Y82.168 E-.5044
G1 X114.997 Y82.168 E-.0956
;WIPE_END
G1 Z.4 F30000
G1 X128.283 Y97.347 Z.4
G1 Z.2
G1 E.6 F2400
G1 F3600
G1 X128.283 Y91.588 E.21453
G1 X128.113 Y91.588 E.00636
G1 X128.113 Y93.588 E.07449
G1 X127.775 Y93.588 E.01256
G1 X127.775 Y97.142 E.13238
G1 X127.267 Y97.142 E.01892
G1 X127.267 Y93.588 E.13238
G1 X126.76 Y93.588 E.01892
G1 X126.76 Y97.142 E.13238
G1 X126.252 Y97.142 E.01892
G1 X126.252 Y93.588 E.13238
G1 X125.744 Y93.588 E.01892
G1 X125.744 Y102.896 E.3467
G1 X125.236 Y102.896 E.01892
G1 X125.236 Y93.588 E.3467
G1 X124.728 Y93.588 E.01892
G1 X124.728 Y102.896 E.3467
G1 X124.22 Y102.896 E.01892
M73 P0 R42
G1 X124.22 Y93.588 E.3467
G1 X123.712 Y93.588 E.01892
G1 X123.712 Y102.896 E.3467
G1 X123.205 Y102.896 E.01892
G1 X123.205 Y90.71 E.45386
G1 X122.697 Y90.71 E.01892
G1 X122.697 Y108.65 E.66818
G1 X122.189 Y108.65 E.01892
G1 X122.189 Y90.71 E.66818
G1 X121.681 Y90.71 E.01892
G1 X121.681 Y108.65 E.66818
G1 X121.173 Y108.65 E.01892
G1 X121.173 Y90.71 E.66818
G1 X120.665 Y90.71 E.01892
G1 X120.665 Y108.65 E.66818
G1 X120.158 Y108.65 E.01888
G1 X120.157 Y114.404 E.21432
G1 X120.157 Y90.71 E.8825
G1 X119.649 Y90.71 E.01892
G1 X119.649 Y114.404 E.8825
G1 X119.142 Y114.404 E.01892
G1 X119.142 Y90.71 E.8825
G1 X118.634 Y90.71 E.01892
G1 X118.634 Y114.404 E.8825
G1 X118.126 Y114.404 E.01892
G1 X118.126 Y90.71 E.8825
G1 X117.781 Y90.71 E.01284
G1 X117.781 Y87.833 E.10716
G1 X117.618 Y87.833 E.00608
G1 X117.618 Y114.404 E.98966
G1 X117.281 Y114.404 E.01254
G1 X117.281 Y120.158 E.21432
G1 X117.11 Y120.158 E.00637
G1 X117.11 Y87.833 E1.20398
G1 X116.602 Y87.833 E.01892
G1 X116.602 Y120.158 E1.20398
G1 X116.094 Y120.158 E.01892
G1 X116.094 Y87.833 E1.20398
G1 X115.587 Y87.833 E.01892
G1 X115.587 Y120.158 E1.20398
G1 X115.079 Y120.158 E.01892
G1 X115.079 Y87.833 E1.20398
G1 X114.904 Y87.833 E.0065
G1 X114.904 Y82.579 E.1957
G1 X114.571 Y82.579 E.01242
G1 X114.571 Y120.158 E1.39968
G1 X114.404 Y120.158 E.00621
G1 X114.404 Y125.912 E.21432
G1 X114.063 Y125.912 E.01271
G1 X114.063 Y82.579 E1.614
G1 X113.555 Y82.579 E.01892
G1 X113.555 Y125.912 E1.614
G1 X113.047 Y125.912 E.01892
M73 P1 R42
G1 X113.047 Y82.579 E1.614
G1 X112.539 Y82.579 E.01892
G1 X112.539 Y125.912 E1.614
G1 X112.031 Y125.912 E.01892
G1 X112.031 Y82.579 E1.614
G1 X111.524 Y82.579 E.01892
G1 X111.524 Y131.667 E1.82832
G1 X111.016 Y131.667 E.01892
G1 X111.016 Y88.333 E1.614
G1 X110.508 Y88.333 E.01892
G1 X110.508 Y131.667 E1.614
G1 X110 Y131.667 E.01892
G1 X110 Y88.333 E1.614
G1 X109.492 Y88.333 E.01892
G1 X109.492 Y131.667 E1.614
G1 X108.984 Y131.667 E.01892
G1 X108.984 Y88.333 E1.614
G1 X108.476 Y88.333 E.01892
G1 X108.476 Y137.421 E1.82832
G1 X107.969 Y137.421 E.01892
G1 X107.969 Y94.088 E1.614
G1 X107.461 Y94.088 E.01892
G1 X107.461 Y137.421 E1.614
G1 X106.953 Y137.421 E.01892
G1 X106.953 Y94.088 E1.614
G1 X106.445 Y94.088 E.01892
G1 X106.445 Y137.421 E1.614
G1 X105.937 Y137.421 E.01892
G1 X105.937 Y94.088 E1.614
G1 X105.596 Y94.088 E.01271
G1 X105.596 Y99.842 E.21432
G1 X105.429 Y99.842 E.00621
G1 X105.429 Y137.421 E1.39968
G1 X105.096 Y137.421 E.01242
G1 X105.096 Y132.167 E.1957
G1 X104.921 Y132.167 E.0065
G1 X104.921 Y99.842 E1.20398
G1 X104.414 Y99.842 E.01892
G1 X104.414 Y132.167 E1.20398
G1 X103.906 Y132.167 E.01892
G1 X103.906 Y99.842 E1.20398
G1 X103.398 Y99.842 E.01892
G1 X103.398 Y132.167 E1.20398
G1 X102.89 Y132.167 E.01892
G1 X102.89 Y99.842 E1.20398
G1 X102.719 Y99.842 E.00637
G1 X102.719 Y105.596 E.21432
G1 X102.382 Y105.596 E.01254
G1 X102.382 Y132.167 E.98966
G1 X102.219 Y132.167 E.00608
G1 X102.219 Y129.29 E.10716
G1 X101.874 Y129.29 E.01284
G1 X101.874 Y105.596 E.8825
G1 X101.366 Y105.596 E.01892
G1 X101.366 Y129.29 E.8825
G1 X100.858 Y129.29 E.01892
G1 X100.858 Y105.596 E.8825
G1 X100.351 Y105.596 E.01892
G1 X100.351 Y129.29 E.8825
G1 X99.843 Y129.29 E.01892
G1 X99.843 Y105.596 E.8825
G1 X99.842 Y111.35 E.21432
G1 X99.335 Y111.35 E.01888
G1 X99.335 Y129.29 E.66818
G1 X98.827 Y129.29 E.01892
G1 X98.827 Y111.35 E.66818
G1 X98.319 Y111.35 E.01892
G1 X98.319 Y129.29 E.66818
G1 X97.811 Y129.29 E.01892
G1 X97.811 Y111.35 E.66818
G1 X97.303 Y111.35 E.01892
G1 X97.303 Y129.29 E.66818
G1 X96.796 Y129.29 E.01892
G1 X96.796 Y117.104 E.45386
G1 X96.288 Y117.104 E.01892
G1 X96.288 Y126.412 E.3467
G1 X95.78 Y126.412 E.01892
G1 X95.78 Y117.104 E.3467
G1 X95.272 Y117.104 E.01892
G1 X95.272 Y126.412 E.3467
G1 X94.764 Y126.412 E.01892
G1 X94.764 Y117.104 E.3467
G1 X94.256 Y117.104 E.01892
G1 X94.256 Y126.412 E.3467
G1 X93.748 Y126.412 E.01892
G1 X93.748 Y122.858 E.13238
G1 X93.24 Y122.858 E.01892
G1 X93.24 Y126.412 E.13238
G1 X92.733 Y126.412 E.01892
G1 X92.733 Y122.858 E.13238
G1 X92.225 Y122.858 E.01892
G1 X92.225 Y126.412 E.13238
G1 X91.888 Y126.412 E.01256
G1 X91.888 Y128.412 E.07449
G1 X91.717 Y128.412 E.00636
G1 X91.717 Y122.653 E.21453
G1 X93.336 Y127.262 F30000
M73 P2 R42
;TYPE:Support interface
;WIDTH:0.42
G1 F3600
G1 X92.738 Y127.262 E.01837
G1 X92.738 Y130.14 E.08841
G1 X92.458 Y130.14 E.00858
G1 X92.458 Y161.787 E.97245
G1 X91.581 Y161.787 E.02695
G1 X91.581 Y130.14 E.97245
G1 X90.704 Y130.14 E.02695
G1 X90.704 Y161.787 E.97245
G1 X90.129 Y161.787 E.01768
;WIPE_START
G1 X90.704 Y161.787 E-.17262
G1 X90.704 Y160.363 E-.42738
;WIPE_END
G1 Z.4 F30000
G1 X92.76 Y156.033 Z.4
G1 Z.2
G1 E.6 F2400
G1 F3600
G1 X93.336 Y156.033 E.01768
G1 X93.336 Y127.262 E.88405
G1 X94.213 Y127.262 E.02695
G1 X94.213 Y156.033 E.88405
G1 X95.09 Y156.033 E.02695
G1 X95.09 Y127.262 E.88405
G1 X95.615 Y127.262 E.01613
G1 X95.615 Y130.14 E.0884
G1 X95.967 Y130.14 E.01082
G1 X95.967 Y150.279 E.61883
G1 X96.844 Y150.279 E.02695
G1 X96.844 Y130.14 E.61883
G1 X97.721 Y130.14 E.02695
G1 X97.721 Y150.279 E.61883
G1 X98.492 Y150.279 E.02369
G1 X98.492 Y144.525 E.17681
G1 X98.598 Y144.525 E.00326
G1 X98.598 Y130.14 E.44203
G1 X99.287 Y130.14 E.02116
G1 X101.229 Y130.14 F30000
G1 F3600
G1 X101.229 Y144.525 E.44203
G1 X100.352 Y144.525 E.02695
G1 X100.352 Y130.14 E.44203
G1 X99.475 Y130.14 E.02695
G1 X99.475 Y144.525 E.44203
G1 X98.787 Y144.525 E.02116
G1 X101.531 Y141.648 F30000
G1 F3600
G1 X102.106 Y141.648 E.01768
G1 X102.106 Y133.017 E.26522
G1 X102.983 Y133.017 E.02695
G1 X102.983 Y141.648 E.26522
G1 X103.86 Y141.648 E.02695
G1 X103.86 Y133.017 E.26522
G1 X104.246 Y133.017 E.01184
G1 X104.246 Y141.648 E.26522
G1 X104.049 Y141.648 E.00605
;WIPE_START
G1 X104.246 Y141.648 E-.05907
G1 X104.246 Y139.845 E-.54093
;WIPE_END
G1 Z.4 F30000
G1 X87.885 Y135.894 Z.4
G1 Z.2
G1 E.6 F2400
G1 F3600
G1 X87.196 Y135.894 E.02116
G1 X87.196 Y167.542 E.97245
G1 X86.983 Y167.542 E.00653
G1 X86.983 Y173.296 E.17681
G1 X86.319 Y173.296 E.02042
G1 X86.319 Y141.648 E.97245
G1 X85.442 Y141.648 E.02695
G1 X85.442 Y173.296 E.97245
G1 X84.565 Y173.296 E.02695
G1 X84.565 Y141.648 E.97245
G1 X84.106 Y141.648 E.01409
G1 X84.106 Y147.402 E.17681
G1 X83.688 Y147.402 E.01286
G1 X83.688 Y176.173 E.88405
G1 X82.811 Y176.173 E.02695
G1 X82.811 Y147.402 E.88405
G1 X81.933 Y147.402 E.02695
G1 X81.933 Y176.173 E.88405
G1 X81.358 Y176.173 E.01768
;WIPE_START
G1 X81.933 Y176.173 E-.17262
G1 X81.933 Y174.748 E-.42738
;WIPE_END
G1 Z.4 F30000
G1 X78.614 Y181.927 Z.4
G1 Z.2
G1 E.6 F2400
G1 F3600
G1 X79.302 Y181.927 E.02116
G1 X79.302 Y153.156 E.88405
G1 X80.179 Y153.156 E.02695
G1 X80.179 Y181.927 E.88405
G1 X81.056 Y181.927 E.02695
G1 X81.056 Y153.156 E.88405
G1 X81.229 Y153.156 E.00531
G1 X81.229 Y147.402 E.17681
G1 X81.933 Y147.402 E.02164
;WIPE_START
G1 X81.229 Y147.402 E-.21128
G1 X81.229 Y148.698 E-.38872
;WIPE_END
G1 Z.4 F30000
G1 X79.114 Y153.156 Z.4
G1 Z.2
G1 E.6 F2400
G1 F3600
G1 X78.425 Y153.156 E.02116
G1 X78.425 Y181.927 E.88405
G1 X78.352 Y181.927 E.00224
G1 X78.352 Y187.681 E.17681
G1 X77.548 Y187.681 E.02471
G1 X77.548 Y158.91 E.88405
G1 X76.671 Y158.91 E.02695
G1 X76.671 Y187.681 E.88405
G1 X75.794 Y187.681 E.02695
G1 X75.794 Y158.91 E.88405
G1 X75.475 Y158.91 E.0098
G1 X75.475 Y164.664 E.17681
G1 X74.917 Y164.664 E.01715
G1 X74.917 Y186.748 E.67855
G1 X74.04 Y186.294 E.03035
G1 X74.04 Y164.664 E.6646
G1 X73.163 Y164.664 E.02695
M73 P2 R41
G1 X73.163 Y185.84 E.65065
G1 X72.286 Y185.386 E.03035
G1 X72.286 Y170.419 E.45989
G1 X71.409 Y170.419 E.02695
G1 X71.409 Y184.931 E.44594
G1 X70.531 Y184.477 E.03035
G1 X70.531 Y170.419 E.43199
G1 X69.721 Y170.419 E.02491
G1 X69.721 Y176.173 E.17681
G1 X69.654 Y176.173 E.00204
G1 X69.654 Y184.023 E.24123
G1 X68.777 Y183.569 E.03035
G1 X68.777 Y176.173 E.22728
G1 X67.9 Y176.173 E.02695
G1 X67.9 Y183.115 E.21332
G1 X67.242 Y182.774 E.02278
G1 X67.023 Y182.847 E.00708
G1 X67.023 Y176.173 E.20507
;WIPE_START
G1 X67.023 Y178.173 E-.6
;WIPE_END
G1 Z.4 F30000
G1 X87.385 Y167.542 Z.4
G1 Z.2
G1 E.6 F2400
G1 F3600
G1 X88.073 Y167.542 E.02116
G1 X88.073 Y135.894 E.97245
G1 X88.95 Y135.894 E.02695
M73 P3 R41
G1 X88.95 Y167.542 E.97245
G1 X89.827 Y167.542 E.02695
G1 X89.827 Y135.894 E.97245
G1 X89.86 Y135.894 E.00102
G1 X89.86 Y130.14 E.17681
G1 X90.704 Y130.14 E.02593
;WIPE_START
G1 X89.86 Y130.14 E-.25315
G1 X89.86 Y131.296 E-.34685
;WIPE_END
G1 Z.4 F30000
G1 X127.73 Y89.86 Z.4
G1 Z.2
G1 E.6 F2400
G1 F3600
G1 X128.419 Y89.86 E.02116
G1 X128.419 Y58.213 E.97245
G1 X129.296 Y58.213 E.02695
G1 X129.296 Y89.86 E.97245
G1 X130.14 Y89.86 E.02593
G1 X130.14 Y84.106 E.17681
G1 X130.173 Y84.106 E.00102
G1 X130.173 Y52.458 E.97245
G1 X130.861 Y52.458 E.02116
;WIPE_START
G1 X130.173 Y52.458 E-.20656
G1 X130.173 Y53.77 E-.39344
;WIPE_END
G1 Z.4 F30000
G1 X128.23 Y58.213 Z.4
G1 Z.2
G1 E.6 F2400
G1 F3600
G1 X127.542 Y58.213 E.02116
G1 X127.542 Y89.86 E.97245
G1 X127.263 Y89.86 E.00857
G1 X127.263 Y92.738 E.0884
G1 X126.665 Y92.738 E.01838
G1 X126.665 Y63.967 E.88405
G1 X125.787 Y63.967 E.02695
G1 X125.787 Y92.738 E.88405
G1 X124.91 Y92.738 E.02695
G1 X124.91 Y63.967 E.88405
G1 X124.385 Y63.967 E.01613
G1 X124.385 Y69.721 E.17681
G1 X124.033 Y69.721 E.01082
G1 X124.033 Y89.86 E.61883
G1 X123.156 Y89.86 E.02695
G1 X123.156 Y69.721 E.61883
G1 X122.279 Y69.721 E.02695
G1 X122.279 Y89.86 E.61883
G1 X121.402 Y89.86 E.02695
G1 X121.402 Y75.475 E.44202
G1 X121.508 Y75.475 E.00327
G1 X121.508 Y69.721 E.17681
;WIPE_START
G1 X121.508 Y71.721 E-.6
;WIPE_END
G1 Z.4 F30000
G1 X133.106 Y78.352 Z.4
G1 Z.2
G1 E.6 F2400
G1 F3600
G1 X133.681 Y78.352 E.01768
G1 X133.681 Y46.704 E.97245
G1 X134.558 Y46.704 E.02695
G1 X134.558 Y78.352 E.97245
G1 X135.435 Y78.352 E.02695
G1 X135.435 Y46.704 E.97245
G1 X135.894 Y46.704 E.01409
G1 X135.894 Y43.827 E.0884
G1 X136.312 Y43.827 E.01286
G1 X136.312 Y72.598 E.88405
G1 X137.189 Y72.598 E.02695
G1 X137.189 Y43.827 E.88405
G1 X138.067 Y43.827 E.02695
G1 X138.067 Y72.598 E.88405
G1 X138.771 Y72.598 E.02164
G1 X138.771 Y66.844 E.17681
G1 X138.944 Y66.844 E.00531
G1 X138.944 Y38.073 E.88405
G1 X139.632 Y38.073 E.02116
;WIPE_START
G1 X138.944 Y38.073 E-.20656
G1 X138.944 Y39.384 E-.39344
;WIPE_END
G1 Z.4 F30000
G1 X133.681 Y46.704 Z.4
G1 Z.2
G1 E.6 F2400
G1 F3600
G1 X133.017 Y46.704 E.02042
G1 X133.017 Y52.458 E.17681
G1 X132.804 Y52.458 E.00653
G1 X132.804 Y84.106 E.97245
G1 X131.927 Y84.106 E.02695
G1 X131.927 Y52.458 E.97245
G1 X131.05 Y52.458 E.02695
G1 X131.05 Y84.106 E.97245
G1 X130.361 Y84.106 E.02116
;WIPE_START
G1 X131.05 Y84.106 E-.20656
G1 X131.05 Y82.795 E-.39344
;WIPE_END
G1 Z.4 F30000
G1 X139.132 Y66.844 Z.4
G1 Z.2
G1 E.6 F2400
G1 F3600
G1 X139.821 Y66.844 E.02116
G1 X139.821 Y38.073 E.88405
G1 X140.698 Y38.073 E.02695
G1 X140.698 Y66.844 E.88405
G1 X141.575 Y66.844 E.02695
G1 X141.575 Y38.073 E.88405
G1 X141.648 Y38.073 E.00224
G1 X141.648 Y32.319 E.17681
G1 X142.452 Y32.319 E.02471
G1 X142.452 Y61.09 E.88405
G1 X143.329 Y61.09 E.02695
G1 X143.329 Y32.319 E.88405
G1 X144.206 Y32.319 E.02695
G1 X144.206 Y61.09 E.88405
G1 X144.525 Y61.09 E.0098
G1 X144.525 Y55.336 E.17681
G1 X145.083 Y55.336 E.01715
G1 X145.083 Y33.252 E.67856
G1 X145.96 Y33.706 E.03035
G1 X145.96 Y55.336 E.6646
G1 X146.837 Y55.336 E.02695
G1 X146.837 Y34.16 E.65065
G1 X147.714 Y34.614 E.03035
G1 X147.714 Y49.581 E.45989
G1 X148.592 Y49.581 E.02695
G1 X148.592 Y35.068 E.44594
G1 X149.469 Y35.523 E.03035
G1 X149.469 Y49.581 E.43199
G1 X150.279 Y49.581 E.02491
G1 X150.279 Y43.827 E.17681
G1 X150.346 Y43.827 E.00204
G1 X150.346 Y35.977 E.24123
G1 X151.055 Y36.344 E.02455
G1 X153.156 Y37.552 F30000
G1 F3600
M73 P4 R41
G1 X153.156 Y36.944 E.01867
G1 X153.069 Y37.123 E.00611
G1 X152.977 Y37.153 E.00297
G1 X152.977 Y43.827 E.20507
G1 X152.1 Y43.827 E.02695
