; HEADER_BLOCK_START
; generated by OrcaSlicer 2.3.1 on 2026-04-24 at 13:04:47
; total layer number: 102
; filament_density: 1.24
; filament_diameter: 1.75
; max_z_height: 20.60
; HEADER_BLOCK_END

; THUMBNAIL_BLOCK_START

;
; THUMBNAIL_BLOCK_END

; THUMBNAIL_BLOCK_START

;
; THUMBNAIL_BLOCK_END

; external perimeters extrusion width = 0.42mm
; perimeters extrusion width = 0.45mm
; infill extrusion width = 0.45mm
; solid infill extrusion width = 0.42mm
; top infill extrusion width = 0.42mm
; support material extrusion width = 0.42mm
; first layer extrusion width = 0.50mm

; external perimeters extrusion width = 0.42mm
; perimeters extrusion width = 0.45mm
; infill extrusion width = 0.45mm
; solid infill extrusion width = 0.42mm
; top infill extrusion width = 0.42mm
; support material extrusion width = 0.42mm
; first layer extrusion width = 0.50mm

; external perimeters extrusion width = 0.42mm
; perimeters extrusion width = 0.45mm
; infill extrusion width = 0.45mm
; solid infill extrusion width = 0.42mm
; top infill extrusion width = 0.42mm
; support material extrusion width = 0.42mm
; first layer extrusion width = 0.50mm

; EXECUTABLE_BLOCK_START
EXCLUDE_OBJECT_DEFINE NAME=04_overall_rank__print_safe_contiguous_closed_tube_seed2502__eval_1018__w_0.04291__fos_1.649.obj_id_0_copy_0 CENTER=130.103,128.29 POLYGON=[[42.2843,202.662],[203.383,40.4709],[217.922,55.0104],[55.731,216.109],[42.2843,202.662]]
EXCLUDE_OBJECT_DEFINE NAME=03_overall_rank__print_safe_contiguous_closed_tube_seed2502__eval_1062__w_0.04179__fos_1.846.obj_id_1_copy_0 CENTER=92.0194,92.0722 POLYGON=[[5.10341,166.367],[71.7481,99.6549],[85.8849,85.5038],[158.036,14.1953],[167.182,5.15622],[178.935,16.9097],[169.896,26.0556],[98.5877,98.2067],[84.4367,112.343],[17.7246,178.988],[14.1007,175.364],[8.72726,169.991],[5.10341,166.367]]
EXCLUDE_OBJECT_DEFINE NAME=02_overall_rank__print_safe_contiguous_closed_tube_seed2502__eval_1066__w_0.04048__fos_1.674.obj_id_2_copy_0 CENTER=114.61,108.681 POLYGON=[[27.5691,183.884],[188.614,21.6393],[201.652,34.677],[39.4073,195.722],[27.5691,183.884]]
M73 P0 R82
M106 S0
M106 P2 S0
;TYPE:Custom
M106 P2 S255 
M191 S25 ;set chamber_temperature and wait for it to be reached
M106 P2 S0 
M140 S0
M104 S0 
START_PRINT EXTRUDER_TEMP=220 BED_TEMP=60
G90
G21
M83 ; use relative distances for extrusion
; filament start gcode
M106 S0
M106 P2 S0
;LAYER_CHANGE
;Z:0.2
;HEIGHT:0.2
;BEFORE_LAYER_CHANGE
;0.2
G92 E0

G1 E-.6 F2400
;_SET_FAN_SPEED_CHANGING_LAYER
SET_VELOCITY_LIMIT ACCEL=500 ACCEL_TO_DECEL=250
SET_VELOCITY_LIMIT SQUARE_CORNER_VELOCITY=9
EXCLUDE_OBJECT_START NAME=03_overall_rank__print_safe_contiguous_closed_tube_seed2502__eval_1062__w_0.04179__fos_1.846.obj_id_1_copy_0
G1 Z.4 F30000
G1 X126.914 Y51.793
G1 Z.4
G1 Z.2
G1 E.6 F2400
;TYPE:Support interface
;WIDTH:0.42
G1 F3600
G1 X126.544 Y51.793 E.01136
G1 X126.544 Y55.935 E.12728
G1 X127.103 Y55.389 E.02401
G1 X127.103 Y51.793 E.11048
G1 X127.98 Y51.793 E.02695
G1 X127.98 Y54.81 E.09269
G1 X128.383 Y55.216 E.01759
G1 X127.98 Y55.62 E.01753
G1 X127.98 Y57.547 E.05921
G1 X128.857 Y57.547 E.02695
G1 X128.857 Y51.793 E.17681
G1 X129.421 Y51.793 E.01735
G1 X129.421 Y48.916 E.0884
G1 X129.734 Y48.916 E.0096
G1 X129.734 Y54.67 E.17681
G1 X130.611 Y54.67 E.02695
G1 X130.611 Y48.916 E.17681
G1 X131.488 Y48.916 E.02695
G1 X131.488 Y54.67 E.17681
G1 X132.299 Y54.67 E.02491
G1 X132.299 Y51.793 E.0884
G1 X132.365 Y51.793 E.00204
G1 X132.365 Y46.039 E.17681
G1 X133.054 Y46.039 E.02116
G1 X135.298 Y48.916 F30000
G1 F3600
G1 X135.873 Y48.916 E.01768
G1 X135.873 Y43.162 E.17681
G1 X136.75 Y43.162 E.02695
G1 X136.75 Y48.916 E.17681
G1 X137.627 Y48.916 E.02695
G1 X137.627 Y43.162 E.17681
G1 X138.053 Y43.162 E.01306
G1 X138.053 Y40.285 E.0884
G1 X138.505 Y40.285 E.01389
G1 X138.505 Y46.039 E.17681
G1 X139.382 Y46.039 E.02695
G1 X139.382 Y40.285 E.17681
G1 X140.259 Y40.285 E.02695
G1 X140.259 Y46.039 E.17681
G1 X140.93 Y46.039 E.02062
G1 X140.93 Y43.162 E.0884
G1 X141.136 Y43.162 E.00633
G1 X141.136 Y37.408 E.17681
G1 X141.824 Y37.408 E.02116
G1 X144.069 Y40.285 F30000
G1 F3600
G1 X144.644 Y40.285 E.01768
G1 X144.644 Y34.531 E.17681
G1 X145.521 Y34.531 E.02695
G1 X145.521 Y40.285 E.17681
G1 X146.398 Y40.285 E.02695
G1 X146.398 Y34.531 E.17681
G1 X146.684 Y34.531 E.00877
G1 X146.684 Y31.654 E.0884
G1 X147.275 Y31.654 E.01818
;WIPE_START
G1 X146.684 Y31.654 E-.17745
G1 X146.684 Y33.062 E-.42255
;WIPE_END
G1 Z.4 F30000
G1 X152.726 Y31.654 Z.4
G1 Z.2
G1 E.6 F2400
G1 F3600
G1 X153.415 Y31.654 E.02116
G1 X153.415 Y25.899 E.17681
G1 X154.292 Y25.899 E.02695
G1 X154.292 Y31.654 E.17681
G1 X155.169 Y31.654 E.02695
G1 X155.169 Y25.899 E.17681
G1 X155.315 Y25.899 E.00449
G1 X155.315 Y23.022 E.0884
G1 X156.046 Y23.022 E.02246
;WIPE_START
G1 X155.315 Y23.022 E-.21932
G1 X155.315 Y24.291 E-.38068
;WIPE_END
G1 Z.4 F30000
G1 X161.497 Y23.022 Z.4
G1 Z.2
G1 E.6 F2400
G1 F3600
G1 X162.186 Y23.022 E.02116
G1 X162.186 Y17.268 E.17681
G1 X163.063 Y17.268 E.02695
G1 X163.063 Y23.022 E.17681
G1 X163.94 Y23.022 E.02695
G1 X163.946 Y14.391 E.26522
G1 X164.817 Y14.391 E.02675
G1 X166.873 Y17.268 F30000
G1 F3600
G1 X167.448 Y17.268 E.01768
G1 X167.448 Y11.514 E.17681
G1 X168.325 Y11.514 E.02695
G1 X168.325 Y17.268 E.17681
G1 X169.202 Y17.268 E.02695
G1 X169.202 Y11.514 E.17681
G1 X169.701 Y11.514 E.01531
G1 X169.701 Y8.637 E.0884
G1 X170.079 Y8.637 E.01164
G1 X170.079 Y14.391 E.17681
G1 X170.957 Y14.391 E.02695
G1 X170.957 Y8.637 E.17681
G1 X171.834 Y8.637 E.02695
G1 X171.834 Y14.391 E.17681
G1 X172.578 Y14.391 E.02286
G1 X172.578 Y11.514 E.0884
G1 X172.711 Y11.514 E.00409
G1 X172.711 Y8.637 E.08841
G1 X173.399 Y8.637 E.02116
G1 X175.342 Y8.637 F30000
G1 F3600
G1 X175.342 Y11.514 E.08841
G1 X174.465 Y11.514 E.02695
G1 X174.465 Y8.637 E.08841
G1 X173.588 Y8.637 E.02695
G1 X173.588 Y11.514 E.08841
G1 X172.899 Y11.514 E.02116
;WIPE_START
G1 X173.588 Y11.514 E-.20656
G1 X173.588 Y10.203 E-.39344
;WIPE_END
G1 Z.4 F30000
G1 X167.448 Y11.514 Z.4
G1 Z.2
G1 E.6 F2400
G1 F3600
G1 X166.823 Y11.514 E.0192
G1 X166.823 Y14.391 E.0884
G1 X166.571 Y14.391 E.00775
G1 X166.571 Y20.145 E.17681
G1 X165.694 Y20.145 E.02695
G1 X165.694 Y14.391 E.17681
G1 X164.817 Y14.391 E.02695
G1 X164.817 Y20.145 E.17681
G1 X164.242 Y20.145 E.01768
G1 X161.997 Y17.268 F30000
G1 F3600
G1 X161.309 Y17.268 E.02116
G1 X161.309 Y23.022 E.17681
G1 X161.069 Y23.022 E.00735
G1 X161.069 Y25.899 E.0884
G1 X160.432 Y25.899 E.0196
G1 X160.432 Y20.145 E.17681
G1 X159.554 Y20.145 E.02695
G1 X159.554 Y25.899 E.17681
G1 X158.677 Y25.899 E.02695
G1 X158.677 Y20.145 E.17681
G1 X158.192 Y20.145 E.01491
G1 X158.192 Y23.022 E.0884
G1 X157.8 Y23.022 E.01204
G1 X157.8 Y28.776 E.17681
G1 X156.923 Y28.776 E.02695
G1 X156.923 Y23.022 E.17681
G1 X156.046 Y23.022 E.02695
G1 X156.046 Y28.776 E.17681
G1 X155.471 Y28.776 E.01768
G1 X153.226 Y25.899 F30000
G1 F3600
G1 X152.538 Y25.899 E.02116
G1 X152.538 Y31.654 E.17681
G1 X152.438 Y31.654 E.00307
G1 X152.438 Y34.531 E.0884
G1 X151.661 Y34.531 E.02388
G1 X151.661 Y28.776 E.17681
G1 X150.784 Y28.776 E.02695
G1 X150.784 Y34.531 E.17681
G1 X149.907 Y34.531 E.02695
G1 X149.907 Y28.776 E.17681
G1 X149.561 Y28.776 E.01062
G1 X149.561 Y31.654 E.0884
G1 X149.03 Y31.654 E.01633
G1 X149.03 Y37.408 E.17681
G1 X148.152 Y37.408 E.02695
G1 X148.152 Y31.654 E.17681
G1 X147.275 Y31.654 E.02695
G1 X147.275 Y37.408 E.17681
G1 X146.7 Y37.408 E.01768
G1 X144.644 Y34.531 F30000
G1 F3600
G1 X143.807 Y34.531 E.02573
G1 X143.807 Y37.408 E.0884
G1 X143.767 Y37.408 E.00122
G1 X143.767 Y43.162 E.17681
G1 X142.89 Y43.162 E.02695
G1 X142.89 Y37.408 E.17681
G1 X142.013 Y37.408 E.02695
G1 X142.013 Y43.162 E.17681
G1 X141.324 Y43.162 E.02116
;WIPE_START
G1 X142.013 Y43.162 E-.20656
G1 X142.013 Y41.85 E-.39344
;WIPE_END
G1 Z.4 F30000
G1 X135.873 Y43.162 Z.4
G1 Z.2
G1 E.6 F2400
G1 F3600
G1 X135.176 Y43.162 E.02144
G1 X135.176 Y46.039 E.0884
G1 X134.996 Y46.039 E.00551
G1 X134.996 Y51.793 E.17681
G1 X134.119 Y51.793 E.02695
G1 X134.119 Y46.039 E.17681
G1 X133.242 Y46.039 E.02695
G1 X133.242 Y51.793 E.17681
G1 X132.554 Y51.793 E.02116
;WIPE_START
G1 X133.242 Y51.793 E-.20656
G1 X133.242 Y50.482 E-.39344
;WIPE_END
G1 Z.4 F30000
G1 X127.846 Y55.754 Z.4
G1 Z.2
G1 E.6 F2400
G1 F3600
G1 X127.103 Y56.5 E.03237
G1 X127.103 Y57.547 E.03219
G1 X126.544 Y57.547 E.01715
G1 X126.544 Y57.059 E.01499
G1 X126.969 Y56.633 E.0185
;WIPE_START
G1 X126.544 Y57.059 E-.18059
G1 X126.544 Y57.547 E-.14638
G1 X127.103 Y57.547 E-.16747
G1 X127.103 Y57.195 E-.10556
;WIPE_END
EXCLUDE_OBJECT_END NAME=03_overall_rank__print_safe_contiguous_closed_tube_seed2502__eval_1062__w_0.04179__fos_1.846.obj_id_1_copy_0
EXCLUDE_OBJECT_START NAME=02_overall_rank__print_safe_contiguous_closed_tube_seed2502__eval_1066__w_0.04048__fos_1.674.obj_id_2_copy_0
G1 Z.4 F30000
G1 X144.243 Y77.033 Z.4
G1 Z.2
G1 E.6 F2400
G1 F3600
G1 X143.554 Y77.033 E.02116
G1 X143.554 Y82.787 E.17681
G1 X143.381 Y82.787 E.00531
G1 X143.381 Y85.664 E.0884
G1 X142.677 Y85.664 E.02164
G1 X142.677 Y79.91 E.17681
G1 X141.8 Y79.91 E.02695
G1 X141.8 Y85.664 E.17681
G1 X140.923 Y85.664 E.02695
G1 X140.923 Y79.91 E.17681
G1 X140.504 Y79.91 E.01286
G1 X140.504 Y82.787 E.0884
G1 X140.046 Y82.787 E.01409
G1 X140.046 Y88.541 E.17681
G1 X139.169 Y88.541 E.02695
G1 X139.169 Y82.787 E.17681
G1 X138.291 Y82.787 E.02695
G1 X138.291 Y88.541 E.17681
G1 X137.716 Y88.541 E.01768
G1 X135.472 Y85.664 F30000
G1 F3600
G1 X134.783 Y85.664 E.02116
G1 X134.783 Y91.418 E.17681
G1 X134.75 Y91.418 E.00102
G1 X134.75 Y94.295 E.0884
G1 X133.906 Y94.295 E.02593
G1 X133.906 Y88.541 E.17681
G1 X133.029 Y88.541 E.02695
G1 X133.029 Y94.295 E.17681
G1 X132.34 Y94.295 E.02116
;WIPE_START
G1 X133.029 Y94.295 E-.20656
G1 X133.029 Y92.984 E-.39344
;WIPE_END
G1 Z.4 F30000
G1 X126.889 Y94.295 Z.4
G1 Z.2
G1 E.6 F2400
G1 F3600
G1 X126.119 Y94.295 E.02368
G1 X126.119 Y97.172 E.0884
G1 X126.012 Y97.172 E.00327
G1 X126.012 Y102.926 E.17681
G1 X125.135 Y102.926 E.02695
G1 X125.135 Y97.172 E.17681
G1 X124.258 Y97.172 E.02695
G1 X124.258 Y102.926 E.17681
G1 X123.57 Y102.926 E.02116
;WIPE_START
G1 X124.258 Y102.926 E-.20656
G1 X124.258 Y101.615 E-.39344
;WIPE_END
G1 Z.4 F30000
G1 X166.66 Y62.647 Z.4
G1 Z.2
G1 E.6 F2400
G1 F3600
G1 X167.235 Y62.647 E.01768
G1 X167.235 Y54.016 E.26522
G1 X168.112 Y54.016 E.02695
G1 X168.112 Y62.647 E.26522
G1 X168.989 Y62.647 E.02695
G1 X168.989 Y54.016 E.26522
G1 X169.866 Y54.016 E.02695
G1 X169.866 Y59.77 E.17681
G1 X169.291 Y59.77 E.01768
G1 X171.809 Y59.77 F30000
G1 F3600
G1 X172.152 Y59.77 E.01054
G1 X172.152 Y54.826 E.15193
G1 X171.757 Y55.2 E.01671
G1 X171.045 Y55.069 F30000
G1 F3600
G1 X171.451 Y55.49 E.01798
G1 X171.621 Y55.329 E.00717
G1 X171.621 Y59.77 E.13645
G1 X170.743 Y59.77 E.02695
G1 X170.743 Y54.016 E.17681
G1 X171.621 Y54.016 E.02695
G1 X171.621 Y54.245 E.00703
G1 X171.045 Y54.809 E.02476
G1 X167.235 Y54.016 F30000
G1 F3600
G1 X166.398 Y54.016 E.02573
G1 X166.398 Y56.893 E.0884
G1 X166.358 Y56.893 E.00122
G1 X166.358 Y65.524 E.26522
G1 X165.481 Y65.524 E.02695
G1 X165.481 Y56.893 E.26522
G1 X164.604 Y56.893 E.02695
G1 X164.604 Y65.524 E.26522
G1 X163.727 Y65.524 E.02695
G1 X163.727 Y56.893 E.26522
G1 X163.521 Y56.893 E.00633
G1 X163.521 Y57.314 E.01293
G1 X163.425 Y59.77 F30000
G1 F3600
G1 X162.85 Y59.77 E.01768
G1 X162.85 Y65.524 E.17681
G1 X161.973 Y65.524 E.02695
G1 X161.973 Y59.77 E.17681
G1 X161.096 Y59.77 E.02695
G1 X161.096 Y65.524 E.17681
G1 X160.644 Y65.524 E.01389
G1 X160.644 Y68.402 E.0884
G1 X160.218 Y68.402 E.01306
G1 X160.218 Y62.647 E.17681
G1 X159.341 Y62.647 E.02695
G1 X159.341 Y68.402 E.17681
G1 X158.464 Y68.402 E.02695
G1 X158.464 Y62.647 E.17681
G1 X157.767 Y62.647 E.02144
G1 X157.767 Y65.524 E.0884
G1 X157.587 Y65.524 E.00551
G1 X157.587 Y71.279 E.17681
G1 X156.71 Y71.279 E.02695
G1 X156.71 Y65.524 E.17681
G1 X155.833 Y65.524 E.02695
G1 X155.833 Y71.279 E.17681
G1 X155.145 Y71.279 E.02116
;WIPE_START
G1 X155.833 Y71.279 E-.20656
G1 X155.833 Y69.967 E-.39344
;WIPE_END
G1 Z.4 F30000
G1 X155.645 Y65.524 Z.4
G1 Z.2
M73 P0 R81
G1 E.6 F2400
G1 F3600
G1 X154.956 Y65.524 E.02116
G1 X154.956 Y71.279 E.17681
G1 X154.89 Y71.279 E.00204
G1 X154.89 Y74.156 E.0884
G1 X154.079 Y74.156 E.02491
G1 X154.079 Y68.401 E.17681
G1 X153.202 Y68.401 E.02695
G1 X153.202 Y74.156 E.17681
G1 X152.325 Y74.156 E.02695
G1 X152.325 Y68.401 E.17681
G1 X152.012 Y68.401 E.0096
G1 X152.012 Y71.279 E.0884
G1 X151.448 Y71.279 E.01735
G1 X151.448 Y77.033 E.17681
G1 X150.571 Y77.033 E.02695
G1 X150.571 Y71.279 E.17681
G1 X149.694 Y71.279 E.02695
G1 X149.694 Y77.033 E.17681
G1 X149.135 Y77.033 E.01715
G1 X149.135 Y79.91 E.0884
G1 X148.816 Y79.91 E.0098
G1 X148.816 Y74.156 E.17681
G1 X147.939 Y74.156 E.02695
G1 X147.939 Y79.91 E.17681
G1 X147.062 Y79.91 E.02695
G1 X147.062 Y74.156 E.17681
G1 X146.258 Y74.156 E.02471
G1 X146.258 Y77.033 E.0884
G1 X146.185 Y77.033 E.00224
G1 X146.185 Y82.787 E.17681
G1 X145.308 Y82.787 E.02695
G1 X145.308 Y77.033 E.17681
G1 X144.431 Y77.033 E.02695
G1 X144.431 Y82.787 E.17681
G1 X143.743 Y82.787 E.02116
;WIPE_START
G1 X144.431 Y82.787 E-.20656
G1 X144.431 Y81.475 E-.39344
;WIPE_END
G1 Z.4 F30000
G1 X138.291 Y82.787 Z.4
G1 Z.2
G1 E.6 F2400
G1 F3600
G1 X137.627 Y82.787 E.02042
G1 X137.627 Y85.664 E.0884
G1 X137.414 Y85.664 E.00653
G1 X137.414 Y91.418 E.17681
G1 X136.537 Y91.418 E.02695
G1 X136.537 Y85.664 E.17681
G1 X135.66 Y85.664 E.02695
G1 X135.66 Y91.418 E.17681
G1 X134.972 Y91.418 E.02116
G1 X132.84 Y88.541 F30000
G1 F3600
G1 X132.152 Y88.541 E.02116
G1 X132.152 Y94.295 E.17681
G1 X131.873 Y94.295 E.00857
G1 X131.873 Y97.172 E.0884
G1 X131.275 Y97.172 E.01838
G1 X131.275 Y91.418 E.17681
G1 X130.398 Y91.418 E.02695
G1 X130.398 Y97.172 E.17681
G1 X129.521 Y97.172 E.02695
G1 X129.521 Y91.418 E.17681
G1 X128.996 Y91.418 E.01613
G1 X128.996 Y94.295 E.0884
G1 X128.644 Y94.295 E.01082
G1 X128.644 Y100.049 E.17681
G1 X127.767 Y100.049 E.02695
G1 X127.767 Y94.295 E.17681
G1 X126.889 Y94.295 E.02695
G1 X126.889 Y100.049 E.17681
G1 X126.314 Y100.049 E.01768
G1 X124.07 Y97.172 F30000
G1 F3600
G1 X123.381 Y97.172 E.02116
G1 X123.381 Y102.926 E.17681
G1 X123.242 Y102.926 E.00429
G1 X123.242 Y105.804 E.0884
G1 X122.504 Y105.804 E.02266
G1 X122.504 Y100.049 E.17681
G1 X121.627 Y100.049 E.02695
G1 X121.627 Y105.804 E.17681
G1 X120.75 Y105.804 E.02695
G1 X120.75 Y100.049 E.17681
G1 X120.365 Y100.049 E.01184
G1 X120.365 Y102.926 E.0884
G1 X119.873 Y102.926 E.01511
G1 X119.873 Y105.804 E.08841
G1 X118.996 Y105.804 E.02695
G1 X118.996 Y102.926 E.08841
G1 X118.119 Y102.926 E.02695
G1 X118.119 Y105.804 E.08841
G1 X117.487 Y105.804 E.0194
G1 X117.487 Y102.926 E.08841
G1 X117.93 Y102.926 E.0136
G1 X117.049 Y105.546 F30000
;TYPE:Support
;WIDTH:0.5
G1 F3600
G1 X117.049 Y103.865 E.06262
G1 X112.672 Y103.865 E.16302
G1 X112.672 Y106.742 E.10716
G1 X109.795 Y106.742 E.10716
G1 X109.795 Y109.619 E.10716
G1 X106.918 Y109.619 E.10716
G1 X106.918 Y112.496 E.10716
G1 X104.041 Y112.496 E.10716
G1 X104.041 Y115.373 E.10716
G1 X101.164 Y115.373 E.10716
G1 X101.164 Y118.25 E.10716
G1 X98.287 Y118.25 E.10716
G1 X98.287 Y121.128 E.10716
G1 X95.409 Y121.128 E.10716
G1 X95.409 Y124.005 E.10716
G1 X92.532 Y124.005 E.10716
G1 X92.532 Y126.882 E.10716
G1 X89.655 Y126.882 E.10716
G1 X89.655 Y129.759 E.10716
G1 X86.778 Y129.759 E.10716
G1 X86.778 Y132.636 E.10716
G1 X83.901 Y132.636 E.10716
G1 X83.901 Y135.513 E.10716
G1 X81.024 Y135.513 E.10716
G1 X81.024 Y138.39 E.10716
G1 X78.147 Y138.39 E.10716
G1 X78.147 Y141.267 E.10716
G1 X75.27 Y141.267 E.10716
G1 X75.27 Y144.144 E.10716
G1 X72.393 Y144.144 E.10716
G1 X72.393 Y147.021 E.10716
G1 X69.516 Y147.021 E.10716
G1 X69.516 Y151.398 E.16302
G1 X71.893 Y151.398 E.08854
G1 X71.893 Y156.652 E.1957
G1 X76.27 Y156.652 E.16302
G1 X76.27 Y153.775 E.10716
G1 X79.147 Y153.775 E.10716
G1 X79.147 Y150.898 E.10716
G1 X82.024 Y150.898 E.10716
G1 X82.024 Y148.021 E.10716
G1 X84.901 Y148.021 E.10716
G1 X84.901 Y145.144 E.10716
G1 X87.778 Y145.144 E.10716
G1 X87.778 Y142.267 E.10716
G1 X90.655 Y142.267 E.10716
G1 X90.655 Y139.39 E.10716
G1 X93.532 Y139.39 E.10716
G1 X93.532 Y136.513 E.10716
G1 X96.409 Y136.513 E.10716
