; HEADER_BLOCK_START
; generated by OrcaSlicer 2.3.1 on 2026-04-24 at 13:56:27
; total layer number: 63
; filament_density: 1.24
; filament_diameter: 1.75
; max_z_height: 12.60
; HEADER_BLOCK_END

; THUMBNAIL_BLOCK_START

;
; THUMBNAIL_BLOCK_END

; THUMBNAIL_BLOCK_START

;
; THUMBNAIL_BLOCK_END

; external perimeters extrusion width = 0.42mm
; perimeters extrusion width = 0.45mm
; infill extrusion width = 0.45mm
; solid infill extrusion width = 0.42mm
; top infill extrusion width = 0.42mm
; first layer extrusion width = 0.50mm

; external perimeters extrusion width = 0.42mm
; perimeters extrusion width = 0.45mm
; infill extrusion width = 0.45mm
; solid infill extrusion width = 0.42mm
; top infill extrusion width = 0.42mm
; first layer extrusion width = 0.50mm

; EXECUTABLE_BLOCK_START
EXCLUDE_OBJECT_DEFINE NAME=support_block_single_tapered_flat_top.obj_id_0_copy_0 CENTER=113.673,125.955 POLYGON=[[103.514,115.796],[123.832,115.796],[123.832,136.114],[103.514,136.114],[103.514,115.796]]
EXCLUDE_OBJECT_DEFINE NAME=support_block_single_tapered_flat_top.obj_id_1_copy_0 CENTER=112.227,90.1222 POLYGON=[[102.068,79.9632],[122.386,79.9632],[122.386,100.281],[102.068,100.281],[102.068,79.9632]]
M73 P0 R10
M106 S0
M106 P2 S0
;TYPE:Custom
M106 P2 S255 
M191 S25 ;set chamber_temperature and wait for it to be reached
M106 P2 S0 
M140 S0
M104 S0 
START_PRINT EXTRUDER_TEMP=220 BED_TEMP=60
G90
G21
M83 ; use relative distances for extrusion
; filament start gcode
M106 S0
M106 P2 S0
;LAYER_CHANGE
;Z:0.2
;HEIGHT:0.2
;BEFORE_LAYER_CHANGE
;0.2
G92 E0

G1 E-.6 F2400
;_SET_FAN_SPEED_CHANGING_LAYER
SET_VELOCITY_LIMIT ACCEL=500 ACCEL_TO_DECEL=250
SET_VELOCITY_LIMIT SQUARE_CORNER_VELOCITY=9
EXCLUDE_OBJECT_START NAME=support_block_single_tapered_flat_top.obj_id_0_copy_0
G1 Z.4 F30000
G1 X122.472 Y134.76
G1 Z.4
G1 Z.2
G1 E.6 F2400
;TYPE:Inner wall
;WIDTH:0.499999
G1 F3600
G1 X104.873 Y134.76 E.65549
G1 X104.873 Y117.149 E.65593
G1 X122.472 Y117.149 E.65549
G1 X122.472 Y134.72 E.65444
G1 X122.929 Y135.217 F30000
G1 F3600
G1 X104.416 Y135.217 E.68953
G1 X104.416 Y116.692 E.68998
G1 X122.929 Y116.692 E.68953
G1 X122.929 Y135.177 E.68849
G1 X123.408 Y135.696 F30000
;TYPE:Outer wall
G1 F3600
G1 X103.938 Y135.696 E.72518
G1 X103.938 Y116.214 E.72563
G1 X123.408 Y116.214 E.72518
G1 X123.408 Y135.656 E.72414
;WIPE_START
G1 X121.408 Y135.66 E-.6
;WIPE_END
G1 Z.4 F30000
G1 X122.335 Y118.225 Z.4
G1 Z.2
M73 P1 R10
G1 E.6 F2400
;TYPE:Bottom surface
;WIDTH:0.506574
G1 F6300
G1 X121.603 Y117.492 E.03912
G1 X120.947 Y117.492 E.02477
G1 X122.129 Y118.675 E.06317
G1 X122.129 Y119.33 E.02477
G1 X120.291 Y117.492 E.09821
G1 X119.636 Y117.492 E.02477
G1 X122.129 Y119.986 E.13324
G1 X122.129 Y120.642 E.02477
G1 X118.98 Y117.492 E.16828
G1 X118.324 Y117.492 E.02477
G1 X122.129 Y121.297 E.20331
G1 X122.129 Y121.953 E.02477
G1 X117.669 Y117.492 E.23835
G1 X117.013 Y117.492 E.02477
G1 X122.129 Y122.609 E.27338
G1 X122.129 Y123.264 E.02477
G1 X116.357 Y117.492 E.30842
G1 X115.701 Y117.492 E.02477
G1 X122.129 Y123.92 E.34345
G1 X122.129 Y124.576 E.02477
G1 X115.046 Y117.492 E.37849
G1 X114.39 Y117.492 E.02477
G1 X122.129 Y125.232 E.41352
G1 X122.129 Y125.887 E.02477
G1 X113.734 Y117.492 E.44856
G1 X113.079 Y117.492 E.02477
G1 X122.129 Y126.543 E.4836
G1 X122.129 Y127.199 E.02477
G1 X112.423 Y117.492 E.51863
G1 X111.767 Y117.492 E.02477
G1 X122.129 Y127.854 E.55367
G1 X122.129 Y128.51 E.02477
G1 X111.112 Y117.492 E.5887
G1 X110.456 Y117.492 E.02477
G1 X122.129 Y129.166 E.62374
G1 X122.129 Y129.822 E.02477
G1 X109.8 Y117.492 E.65877
G1 X109.144 Y117.492 E.02477
G1 X122.129 Y130.477 E.69381
G1 X122.129 Y131.133 E.02477
G1 X108.489 Y117.492 E.72884
G1 X107.833 Y117.492 E.02477
G1 X122.129 Y131.789 E.76388
G1 X122.129 Y132.444 E.02477
M73 P2 R10
G1 X107.177 Y117.492 E.79892
G1 X106.522 Y117.492 E.02477
G1 X122.129 Y133.1 E.83395
G1 X122.129 Y133.756 E.02477
G1 X105.866 Y117.492 E.86899
G1 X105.216 Y117.492 E.02454
G1 X122.129 Y134.417 E.90402
G1 X121.48 Y134.417 E.02455
G1 X105.216 Y118.154 E.86898
G1 X105.216 Y118.81 E.02477
G1 X120.824 Y134.417 E.83395
G1 X120.168 Y134.417 E.02477
G1 X105.216 Y119.465 E.79891
G1 X105.216 Y120.121 E.02477
G1 X119.513 Y134.417 E.76387
G1 X118.857 Y134.417 E.02477
G1 X105.216 Y120.777 E.72884
G1 X105.216 Y121.433 E.02477
G1 X118.201 Y134.417 E.6938
G1 X117.545 Y134.417 E.02477
G1 X105.216 Y122.088 E.65877
G1 X105.216 Y122.744 E.02477
G1 X116.89 Y134.417 E.62373
G1 X116.234 Y134.417 E.02477
G1 X105.216 Y123.4 E.5887
G1 X105.216 Y124.055 E.02477
G1 X115.578 Y134.417 E.55366
G1 X114.923 Y134.417 E.02477
G1 X105.216 Y124.711 E.51863
G1 X105.216 Y125.367 E.02477
M73 P3 R10
G1 X114.267 Y134.417 E.48359
G1 X113.611 Y134.417 E.02477
G1 X105.216 Y126.023 E.44856
G1 X105.216 Y126.678 E.02477
G1 X112.955 Y134.417 E.41352
G1 X112.3 Y134.417 E.02477
G1 X105.216 Y127.334 E.37848
G1 X105.216 Y127.99 E.02477
G1 X111.644 Y134.417 E.34345
G1 X110.988 Y134.417 E.02477
G1 X105.216 Y128.645 E.30841
G1 X105.216 Y129.301 E.02477
G1 X110.333 Y134.417 E.27338
G1 X109.677 Y134.417 E.02477
G1 X105.216 Y129.957 E.23834
G1 X105.216 Y130.612 E.02477
G1 X109.021 Y134.417 E.20331
G1 X108.366 Y134.417 E.02477
G1 X105.216 Y131.268 E.16827
G1 X105.216 Y131.924 E.02477
G1 X107.71 Y134.417 E.13324
G1 X107.054 Y134.417 E.02477
G1 X105.216 Y132.58 E.0982
G1 X105.216 Y133.235 E.02477
G1 X106.398 Y134.417 E.06316
G1 X105.743 Y134.417 E.02477
G1 X105.011 Y133.685 E.03912
;WIPE_START
G1 X105.743 Y134.417 E-.31062
G1 X106.398 Y134.417 E-.19671
G1 X106.18 Y134.199 E-.09267
;WIPE_END
EXCLUDE_OBJECT_END NAME=support_block_single_tapered_flat_top.obj_id_0_copy_0
EXCLUDE_OBJECT_START NAME=support_block_single_tapered_flat_top.obj_id_1_copy_0
G1 Z.4 F30000
G1 X121.026 Y98.928 Z.4
G1 Z.2
G1 E.6 F2400
;TYPE:Inner wall
;WIDTH:0.499999
G1 F3600
G1 X103.427 Y98.928 E.65549
G1 X103.427 Y81.317 E.65593
G1 X121.026 Y81.317 E.65549
G1 X121.026 Y98.888 E.65444
G1 X121.483 Y99.385 F30000
G1 F3600
G1 X102.97 Y99.385 E.68953
G1 X102.97 Y80.86 E.68998
G1 X121.483 Y80.86 E.68953
M73 P4 R10
G1 X121.483 Y99.345 E.68849
G1 X121.962 Y99.863 F30000
;TYPE:Outer wall
G1 F3600
G1 X102.492 Y99.863 E.72518
G1 X102.492 Y80.381 E.72563
G1 X121.962 Y80.381 E.72518
G1 X121.962 Y99.823 E.72414
;WIPE_START
G1 X119.962 Y99.827 E-.6
;WIPE_END
G1 Z.4 F30000
G1 X120.889 Y82.392 Z.4
G1 Z.2
G1 E.6 F2400
;TYPE:Bottom surface
;WIDTH:0.506574
G1 F6300
G1 X120.157 Y81.66 E.03912
G1 X119.501 Y81.66 E.02477
G1 X120.683 Y82.842 E.06317
G1 X120.683 Y83.498 E.02477
G1 X118.845 Y81.66 E.09821
G1 X118.189 Y81.66 E.02477
G1 X120.683 Y84.153 E.13324
G1 X120.683 Y84.809 E.02477
G1 X117.534 Y81.66 E.16828
G1 X116.878 Y81.66 E.02477
G1 X120.683 Y85.465 E.20331
G1 X120.683 Y86.12 E.02477
G1 X116.222 Y81.66 E.23835
G1 X115.567 Y81.66 E.02477
G1 X120.683 Y86.776 E.27338
G1 X120.683 Y87.432 E.02477
G1 X114.911 Y81.66 E.30842
G1 X114.255 Y81.66 E.02477
G1 X120.683 Y88.088 E.34345
G1 X120.683 Y88.743 E.02477
G1 X113.599 Y81.66 E.37849
G1 X112.944 Y81.66 E.02477
G1 X120.683 Y89.399 E.41352
G1 X120.683 Y90.055 E.02477
G1 X112.288 Y81.66 E.44856
G1 X111.632 Y81.66 E.02477
G1 X120.683 Y90.71 E.4836
G1 X120.683 Y91.366 E.02477
M73 P5 R10
G1 X110.977 Y81.66 E.51863
G1 X110.321 Y81.66 E.02477
G1 X120.683 Y92.022 E.55367
G1 X120.683 Y92.677 E.02477
M73 P5 R9
G1 X109.665 Y81.66 E.5887
G1 X109.01 Y81.66 E.02477
G1 X120.683 Y93.333 E.62374
G1 X120.683 Y93.989 E.02477
G1 X108.354 Y81.66 E.65877
G1 X107.698 Y81.66 E.02477
G1 X120.683 Y94.645 E.69381
G1 X120.683 Y95.3 E.02477
G1 X107.042 Y81.66 E.72884
G1 X106.387 Y81.66 E.02477
G1 X120.683 Y95.956 E.76388
G1 X120.683 Y96.612 E.02477
G1 X105.731 Y81.66 E.79892
G1 X105.075 Y81.66 E.02477
G1 X120.683 Y97.267 E.83395
G1 X120.683 Y97.923 E.02477
G1 X104.42 Y81.66 E.86899
G1 X103.77 Y81.66 E.02454
G1 X120.683 Y98.585 E.90402
G1 X120.033 Y98.585 E.02455
G1 X103.77 Y82.321 E.86898
G1 X103.77 Y82.977 E.02477
G1 X119.378 Y98.585 E.83395
G1 X118.722 Y98.585 E.02477
G1 X103.77 Y83.633 E.79891
G1 X103.77 Y84.288 E.02477
M73 P6 R9
G1 X118.066 Y98.585 E.76387
G1 X117.411 Y98.585 E.02477
G1 X103.77 Y84.944 E.72884
G1 X103.77 Y85.6 E.02477
G1 X116.755 Y98.585 E.6938
G1 X116.099 Y98.585 E.02477
G1 X103.77 Y86.256 E.65877
G1 X103.77 Y86.911 E.02477
G1 X115.443 Y98.585 E.62373
G1 X114.788 Y98.585 E.02477
G1 X103.77 Y87.567 E.5887
G1 X103.77 Y88.223 E.02477
G1 X114.132 Y98.585 E.55366
G1 X113.476 Y98.585 E.02477
G1 X103.77 Y88.878 E.51863
G1 X103.77 Y89.534 E.02477
G1 X112.821 Y98.585 E.48359
G1 X112.165 Y98.585 E.02477
G1 X103.77 Y90.19 E.44856
G1 X103.77 Y90.846 E.02477
G1 X111.509 Y98.585 E.41352
G1 X110.853 Y98.585 E.02477
G1 X103.77 Y91.501 E.37848
G1 X103.77 Y92.157 E.02477
G1 X110.198 Y98.585 E.34345
G1 X109.542 Y98.585 E.02477
G1 X103.77 Y92.813 E.30841
G1 X103.77 Y93.468 E.02477
G1 X108.886 Y98.585 E.27338
G1 X108.231 Y98.585 E.02477
G1 X103.77 Y94.124 E.23834
G1 X103.77 Y94.78 E.02477
G1 X107.575 Y98.585 E.20331
G1 X106.919 Y98.585 E.02477
G1 X103.77 Y95.435 E.16827
G1 X103.77 Y96.091 E.02477
G1 X106.264 Y98.585 E.13324
G1 X105.608 Y98.585 E.02477
G1 X103.77 Y96.747 E.0982
G1 X103.77 Y97.403 E.02477
G1 X104.952 Y98.585 E.06316
G1 X104.296 Y98.585 E.02477
G1 X103.564 Y97.853 E.03912
M106 S255
M106 P2 S178
;LAYER_CHANGE
;Z:0.4
;HEIGHT:0.2
;BEFORE_LAYER_CHANGE
;0.4
G92 E0

;WIPE_START
G1 F6300
M73 P7 R9
G1 X104.296 Y98.585 E-.31062
G1 X104.952 Y98.585 E-.19671
G1 X104.734 Y98.366 E-.09267
;WIPE_END
EXCLUDE_OBJECT_END NAME=support_block_single_tapered_flat_top.obj_id_1_copy_0
;_SET_FAN_SPEED_CHANGING_LAYER
SET_VELOCITY_LIMIT ACCEL=12000 ACCEL_TO_DECEL=6000
M140 S60 ; set bed temperature
SET_VELOCITY_LIMIT SQUARE_CORNER_VELOCITY=12
EXCLUDE_OBJECT_START NAME=support_block_single_tapered_flat_top.obj_id_0_copy_0
G1 Z.6 F30000
G1 X122.729 Y135.029 Z.6
G1 Z.4
G1 E.6 F2400
SET_VELOCITY_LIMIT ACCEL=5000 ACCEL_TO_DECEL=2500 SQUARE_CORNER_VELOCITY=7
;TYPE:Inner wall
;WIDTH:0.449999
G1 F13535.956
G1 X104.616 Y135.029 E.60083
G1 X104.616 Y116.88 E.60203
G1 X122.729 Y116.88 E.60083
G1 X122.729 Y134.989 E.6007
SET_VELOCITY_LIMIT ACCEL=12000 ACCEL_TO_DECEL=6000 SQUARE_CORNER_VELOCITY=12
G1 X123.136 Y135.436 F30000
SET_VELOCITY_LIMIT ACCEL=5000 ACCEL_TO_DECEL=2500 SQUARE_CORNER_VELOCITY=7
G1 F13535.956
G1 X104.209 Y135.436 E.62784
G1 X104.209 Y116.473 E.62904
G1 X123.136 Y116.473 E.62784
G1 X123.136 Y135.396 E.62771
SET_VELOCITY_LIMIT ACCEL=12000 ACCEL_TO_DECEL=6000 SQUARE_CORNER_VELOCITY=12
G1 X123.55 Y135.85 F30000
SET_VELOCITY_LIMIT ACCEL=5000 ACCEL_TO_DECEL=2500 SQUARE_CORNER_VELOCITY=7
;TYPE:Outer wall
;WIDTH:0.419999
G1 F12000
G1 X103.796 Y135.85 E.60698
G1 X103.796 Y116.06 E.60809
G1 X123.55 Y116.06 E.60698
G1 X123.55 Y135.81 E.60686
SET_VELOCITY_LIMIT ACCEL=12000 ACCEL_TO_DECEL=6000 SQUARE_CORNER_VELOCITY=12
G1 X122.337 Y133.041 F30000
;TYPE:Internal solid infill
G1 F14612.864
G1 X120.741 Y134.637 E.06937
G1 X122.337 Y134.637 E.04905
G1 X122.337 Y133.081 E.04782
G1 X121.904 Y134.109 F30000
;WIDTH:0.600996
G1 F9873.573
G1 X121.835 Y134.109 E.00317
G1 X121.8 Y134.17 E.00317
G1 X121.835 Y134.23 E.00317
G1 X121.904 Y134.23 E.00317
G1 X121.919 Y134.204 E.00135
G1 X120.029 Y134.868 F30000
;WIDTH:0.421235
G1 F14565.122
G1 X122.398 Y132.499 E.10329
G1 X122.398 Y131.964 E.01649
G1 X119.664 Y134.698 E.11921
G1 X119.129 Y134.698 E.01649
G1 X122.398 Y131.429 E.14254
G1 X122.398 Y130.894 E.01649
G1 X118.594 Y134.698 E.16586
G1 X118.059 Y134.698 E.01649
G1 X122.398 Y130.359 E.18919
G1 X122.398 Y129.824 E.01649
G1 X117.524 Y134.698 E.21251
G1 X116.989 Y134.698 E.01649
G1 X122.398 Y129.289 E.23584
G1 X122.398 Y128.754 E.01649
G1 X116.454 Y134.698 E.25917
G1 X115.919 Y134.698 E.01649
G1 X122.398 Y128.219 E.28249
G1 X122.398 Y127.684 E.01649
G1 X115.384 Y134.698 E.30582
G1 X114.849 Y134.698 E.01649
G1 X122.398 Y127.149 E.32914
G1 X122.398 Y126.614 E.01649
G1 X114.314 Y134.698 E.35247
G1 X113.779 Y134.698 E.01649
G1 X122.398 Y126.079 E.37579
G1 X122.398 Y125.544 E.01649
G1 X113.244 Y134.698 E.39912
G1 X112.708 Y134.698 E.01649
G1 X122.398 Y125.009 E.42244
G1 X122.398 Y124.474 E.01649
G1 X112.173 Y134.698 E.44577
G1 X111.638 Y134.698 E.01649
G1 X122.398 Y123.939 E.46909
G1 X122.398 Y123.404 E.01649
G1 X111.103 Y134.698 E.49242
G1 X110.568 Y134.698 E.01649
G1 X122.398 Y122.869 E.51574
G1 X122.398 Y122.333 E.01649
G1 X110.033 Y134.698 E.53907
G1 X109.498 Y134.698 E.01649
G1 X122.398 Y121.798 E.56239
G1 X122.398 Y121.263 E.01649
G1 X108.963 Y134.698 E.58572
G1 X108.428 Y134.698 E.01649
G1 X122.398 Y120.728 E.60904
G1 X122.398 Y120.193 E.01649
G1 X107.893 Y134.698 E.63237
G1 X107.358 Y134.698 E.01649
G1 X122.398 Y119.658 E.6557
G1 X122.398 Y119.123 E.01649
G1 X106.823 Y134.698 E.67902
G1 X106.288 Y134.698 E.01649
G1 X122.398 Y118.588 E.70235
G1 X122.398 Y118.053 E.01649
G1 X105.753 Y134.698 E.72567
G1 X105.218 Y134.698 E.01649
G1 X122.398 Y117.518 E.749
G1 X122.398 Y117.211 E.00946
G1 X122.17 Y117.211 E.00703
G1 X104.947 Y134.434 E.75085
G1 X104.947 Y133.899 E.01649
G1 X121.635 Y117.211 E.72753
G1 X121.1 Y117.211 E.01649
G1 X104.947 Y133.364 E.7042
G1 X104.947 Y132.829 E.01649
G1 X120.565 Y117.211 E.68088
G1 X120.03 Y117.211 E.01649
G1 X104.947 Y132.294 E.65755
G1 X104.947 Y131.759 E.01649
G1 X119.495 Y117.211 E.63423
G1 X118.96 Y117.211 E.01649
G1 X104.947 Y131.224 E.6109
G1 X104.947 Y130.689 E.01649
G1 X118.425 Y117.211 E.58758
G1 X117.89 Y117.211 E.01649
G1 X104.947 Y130.154 E.56425
G1 X104.947 Y129.619 E.01649
G1 X117.355 Y117.211 E.54093
G1 X116.82 Y117.211 E.01649
G1 X104.947 Y129.084 E.5176
G1 X104.947 Y128.549 E.01649
G1 X116.285 Y117.211 E.49428
G1 X115.75 Y117.211 E.01649
G1 X104.947 Y128.014 E.47095
G1 X104.947 Y127.479 E.01649
G1 X115.215 Y117.211 E.44763
G1 X114.68 Y117.211 E.01649
G1 X104.947 Y126.944 E.4243
G1 X104.947 Y126.409 E.01649
G1 X114.145 Y117.211 E.40098
G1 X113.61 Y117.211 E.01649
M73 P8 R9
G1 X104.947 Y125.874 E.37765
G1 X104.947 Y125.339 E.01649
G1 X113.075 Y117.211 E.35432
G1 X112.54 Y117.211 E.01649
G1 X104.947 Y124.804 E.331
G1 X104.947 Y124.269 E.01649
G1 X112.005 Y117.211 E.30767
G1 X111.47 Y117.211 E.01649
G1 X104.947 Y123.734 E.28435
G1 X104.947 Y123.199 E.01649
G1 X110.935 Y117.211 E.26102
G1 X110.4 Y117.211 E.01649
G1 X104.947 Y122.664 E.2377
G1 X104.947 Y122.129 E.01649
G1 X109.865 Y117.211 E.21437
G1 X109.33 Y117.211 E.01649
G1 X104.947 Y121.594 E.19105
G1 X104.947 Y121.059 E.01649
G1 X108.795 Y117.211 E.16772
G1 X108.26 Y117.211 E.01649
G1 X104.947 Y120.524 E.1444
G1 X104.947 Y119.989 E.01649
G1 X107.725 Y117.211 E.12107
G1 X107.19 Y117.211 E.01649
G1 X104.947 Y119.453 E.09775
G1 X104.947 Y118.918 E.01649
G1 X106.654 Y117.211 E.07442
G1 X106.119 Y117.211 E.01649
G1 X104.947 Y118.383 E.0511
G1 X104.947 Y117.848 E.01649
G1 X105.754 Y117.042 E.03517
G1 X105.043 Y117.24 F30000
;WIDTH:0.439956
G1 F13878.349
G1 X104.969 Y117.282 E.00278
G1 X105.048 Y117.317 E.0028
G1 E-.57018 F2400
;WIPE_START
G1 F13878.349
G1 X104.969 Y117.282 E-.01496
G1 X105.043 Y117.24 E-.01487
;WIPE_END
EXCLUDE_OBJECT_END NAME=support_block_single_tapered_flat_top.obj_id_0_copy_0
EXCLUDE_OBJECT_START NAME=support_block_single_tapered_flat_top.obj_id_1_copy_0
G1 Z.6 F30000
G1 X121.283 Y99.197 Z.6
G1 Z.4
G1 E.6 F2400
SET_VELOCITY_LIMIT ACCEL=5000 ACCEL_TO_DECEL=2500 SQUARE_CORNER_VELOCITY=7
;TYPE:Inner wall
;WIDTH:0.449999
G1 F13535.956
G1 X103.17 Y99.197 E.60083
G1 X103.17 Y81.048 E.60203
G1 X121.283 Y81.048 E.60083
G1 X121.283 Y99.157 E.6007
SET_VELOCITY_LIMIT ACCEL=12000 ACCEL_TO_DECEL=6000 SQUARE_CORNER_VELOCITY=12
G1 X121.69 Y99.604 F30000
SET_VELOCITY_LIMIT ACCEL=5000 ACCEL_TO_DECEL=2500 SQUARE_CORNER_VELOCITY=7
G1 F13535.956
G1 X102.763 Y99.604 E.62784
G1 X102.763 Y80.641 E.62904
G1 X121.69 Y80.641 E.62784
G1 X121.69 Y99.564 E.62771
SET_VELOCITY_LIMIT ACCEL=12000 ACCEL_TO_DECEL=6000 SQUARE_CORNER_VELOCITY=12
G1 X122.103 Y100.017 F30000
SET_VELOCITY_LIMIT ACCEL=5000 ACCEL_TO_DECEL=2500 SQUARE_CORNER_VELOCITY=7
;TYPE:Outer wall
;WIDTH:0.419999
G1 F12000
G1 X102.35 Y100.017 E.60698
G1 X102.35 Y80.227 E.60809
G1 X122.103 Y80.227 E.60698
G1 X122.103 Y99.977 E.60686
